Atsurak/RIA_Lab/PUMA/g661.csv
frame, time,Joint1: JointValue (degree),Joint1: JointVel (degree/s),Joint1: JointAccl (degree/s^2),Joint1: GenForce (N.m),Joint2: JointValue (degree),Joint2: JointVel (degree/s),Joint2: JointAccl (degree/s^2),Joint2: GenForce (N.m),Joint3: JointValue (degree),Joint3: JointVel (degree/s),Joint3: JointAccl (degree/s^2),Joint3: GenForce (N.m),Joint4: JointValue (degree),Joint4: JointVel (degree/s),Joint4: JointAccl (degree/s^2),Joint4: GenForce (N.m),Joint5: JointValue (degree),Joint5: JointVel (degree/s),Joint5: JointAccl (degree/s^2),Joint5: GenForce (N.m),Joint6: JointValue (degree),Joint6: JointVel (degree/s),Joint6: JointAccl (degree/s^2),Joint6: GenForce (N.m),
1,0,3.23814367307547E-06,0.000620735122890772,0.0674792357953144,0.00479109891999635,0.0144559541773119,2.89119071242518,289.234789226093,17.2263069414191,0.014316516434858,2.86319492720022,286.455746182124,-0.087538247863991,-3.23814360042465E-06,-0.000620735096313243,-0.0674792357953497,2.14697734434309E-20,0.000145089517763488,0.0291022605856314,2.89451270605476,4.52249830527074E-05,-7.26602717830628E-14,-2.65843223253917E-11,-1.77231932552713E-16,0,
2,0.01,1.1337234315811E-05,0.000918921675529788,0.0513473747295688,0.0215607522907917,0.0578122438541286,5.78237966354745,289.234715442767,17.2078013527022,0.0572481135500025,5.72508987979473,286.39074758251,-0.0690606494342781,-1.13372335285327E-05,-0.000918921568420579,-0.0513473674995241,-1.16189957575817E-10,0.000585300866088164,0.059216330748608,2.9451135279953,0.000203502506541285,-7.87861059920976E-13,-1.0727336458299E-10,-7.2330204520654E-09,1.72753026384023E-14,
3,0.02,1.94608181685935E-05,0.000572111169335549,0.00295686652521595,0.0359337017659453,0.130068836190823,8.67356337792909,289.234408337809,17.1920862003115,0.128775290802038,8.58438313518218,286.195664307946,-0.0532639537817664,-1.94608172765511E-05,-0.000572111426360405,-0.00295686484300414,6.62123212889854E-11,0.00133580721815625,0.0913541299711566,3.09692147515392,0.000339182249416793,-8.97264337347483E-13,2.56166520998075E-10,-1.71933630908881E-09,1.94750988974137E-14,
4,0.03,1.9549345346944E-05,-0.000742125387832556,-0.0776903930906312,0.0503070338648082,0.231225647893497,11.5647349514345,289.233610708083,17.1765152706125,0.228865516490436,11.4397687996463,285.870182486371,-0.0374905151907808,-1.95493564262492E-05,0.000742122670388142,0.0776902923558548,7.43524624627344E-10,0.00242190033082701,0.126528323890072,3.34999328053628,0.000474871708594598,1.10619946340541E-11,2.71631958975124E-09,1.00638891672377E-07,-2.15593310181023E-13,
5,0.04,3.20323339437019E-07,-0.0033462093741411,-0.190592687315366,0.0646824637361796,0.361282502363317,14.4558823354514,289.231893787524,17.1611013499762,0.357473175831392,14.2899347697607,285.413782135463,-0.0217421071820533,-3.20395057200627E-07,0.00334619859817782,0.190592239108246,2.23845724674781E-09,0.00387899971184732,0.16575265978857,3.7044209879257,0.000610555619166695,7.17169454402861E-11,1.07836111992679E-08,4.4836569044126E-07,-1.39103086058749E-12,
6,0.05,-5.27317707627636E-05,-0.00756259237387671,-0.335750640998828,0.0790633039309694,0.520239069684771,17.3469866189625,289.228657068034,17.1458385802134,0.514539498916723,17.1335607494285,284.825741806892,-0.00602333479177647,5.27315054558297E-05,0.0075625617461113,0.33574937586207,4.97682261300333E-09,0.00575266492885867,0.210042257265938,4.16032820925717,0.000746205881372785,2.65572769357057E-10,3.06857131637976E-08,1.26721309593029E-06,-5.23248945447058E-12,
7,0.06,-0.000157336121725364,-0.0137138285632249,-0.513170247004502,0.09345493112907,0.708094789427766,20.2380203077456,289.223128048397,17.1307028133301,0.699992469205618,19.9693163408619,284.105145070299,0.00965805532353115,0.000157335365966122,0.013713756362065,0.513167377756362,9.52042985232388E-09,0.00809861053847333,0.260413839377393,4.7178649022957,0.000881778833187374,7.57343270770438E-10,7.24426995630874E-08,2.87863980268337E-06,-1.54727456083474E-11,
8,0.07,-0.000334447139944254,-0.0221226902820951,-0.722866755270838,0.107865251584456,0.924848776231255,23.1289455999843,289.214361911073,17.1156519618831,0.913746713378998,22.7958592275958,283.25088881888,0.0252908705591049,0.000334445309797669,0.0221225398355599,0.722861061426639,1.66016487734509E-08,0.0109827229676441,0.317885889739466,5.3772006861957,0.00101721254030436,1.83638684034759E-09,1.51226122743972E-07,5.72463429524683E-06,-3.9533201506812E-11,
9,0.08,-0.000608247432312724,-0.0331123354110607,-0.964869424039838,0.122305164898206,1.17049970812891,26.0197126575686,289.201241126982,17.1006263445078,1.15570337356587,25.611833467365,282.261693372901,0.0408601756893484,0.000608243475721295,0.0331120484809519,0.964859108582784,2.7160452460118E-08,0.0144810785358127,0.383478721355869,6.13851671802023,0.00115242411134069,3.97647647142705E-09,2.89082589016922E-07,1.03998999271676E-05,-9.12557301101139E-11,
10,0.09,-0.00100615274115953,-0.047006535183133,-1.23922713361922,0.136789025681339,1.44504569757025,28.9102578723802,289.182474988862,17.0855490263106,1.4257499631277,28.4158679123493,281.136114351606,0.0563470059584572,0.00100614488129945,0.0470060233908298,1.23920964637077,4.23850179713253E-08,0.018679961665477,0.458214443238852,7.00199615914429,0.0012873070483889,7.91502184806091E-09,5.17120241517668E-07,1.76928896083496E-05,-1.95159117203212E-10,
11,0.1,-0.00155881949862497,-0.0641299710893028,-1.54601486455227,0.151335102613052,1.74848414508353,31.8005021268709,289.156599074544,17.0703261538957,1.7237602073598,31.2065747739001,279.872556277807,0.0717280922978837,0.00155880487999928,0.064129104952871,1.54598668589441,6.37572935208266E-08,0.0236758821914902,0.543116811285944,7.96781326672677,0.00142172864579755,1.47569629339416E-08,8.78281429989759E-07,2.86377963092874E-05,-3.92838759770552E-10,
12,0.11,-0.00230015573064893,-0.0848086095922982,-1.88534104429525,0.165966034331524,2.08081157552016,34.690349048278,289.12197464257,17.0548472848192,2.04959387063787,33.9825483484061,278.469287872919,0.0869756013091499,0.00230012994158611,0.084807204670995,1.88529742231581,9.31053339995419E-08,0.0295755905462731,0.639210950326666,9.03612115215748,0.00155552745318245,2.61099476153013E-08,1.43085868228187E-06,4.45804012646012E-05,-7.5229696939058E-10,
13,0.12,-0.00326733613227438,-0.109370163453616,-2.25735576955468,0.180709281509068,2.44202345681379,37.5796832558646,289.076787964066,17.0389857112569,2.4030965717013,36.7423639204289,276.924458993262,0.102056892941333,0.00326729257205317,0.109367963011771,2.25729040277502,1.32664674077514E-07,0.0364960894698998,0.747522934783423,10.2070382556244,0.0016885108222408,4.42591912297517E-08,2.2529561117984E-06,6.72616843214868E-05,-1.3811849761391E-09,
14,0.13,-0.00450082222462119,-0.138144648614489,-2.66225991542499,0.195597574354336,2.83211400118173,40.4683686006476,289.019049596725,17.0225987776293,2.78409958892363,39.4845768586346,275.236119151135,0.116934299091436,0.0045007512770886,0.138141302118979,2.66216457207162,1.85151560711124E-07,0.0445646407714948,0.86907921600111,11.4806335937244,0.00182045256088422,7.23927174675273E-08,3.44815713729345E-06,9.8924341276001E-05,-2.44515742208608E-09,
15,0.14,-0.00604438859416239,-0.171465045763043,-3.10031514749945,0.210669354642441,3.25107594869122,43.3562463971697,288.946593609188,17.0055281918689,3.192419657572,42.2077219193659,273.402237556442,0.131564926657284,0.0060442765622968,0.171460082413289,3.10017921073358,2.53851521288692E-07,0.0539187655523775,1.00490588499656,12.8569108453901,0.00195109072258016,1.14890649403675E-07,5.15273472725691E-06,0.000142448863706495,-4.19278674125734E-09,
16,0.15,-0.00794515630745727,-0.209668075979558,-3.57185485931378,0.225969211187462,3.69890033310926,46.2431336470058,288.857076767171,16.9876003299522,3.62785876120238,44.910312771935,271.420724606521,0.145900488869159,0.0079449840546545,0.20966087233152,3.57166478586186,3.42727520850114E-07,0.0647062361928128,1.15602776016758,14.3357913503312,0.00208012556356722,1.77696037995572E-07,7.54483553440498E-06,0.00020152765197496,-6.98875942346834E-09,
17,0.16,-0.0102536346900083,-0.253095100192649,-4.077296064932,0.241548307425509,4.17557622995278,49.1288212538638,288.747977696321,16.9686265332606,4.09020391947367,47.5908417588636,269.289454743352,0.159887169008881,0.0102533759236866,0.253084840773129,4.07703474208142,4.5655288815972E-07,0.0770850583040133,1.32346729038755,15.9170961036705,0.002207217705783,2.68789599028394E-07,1.08561878562897E-05,0.000280887788091209,-1.13573800735441E-08,
18,0.17,-0.0130237727572944,-0.302093152615696,-4.61715228531055,0.257464799450737,4.68109048665501,52.013072230358,288.616596041186,16.9484033983054,4.57922697479151,50.247779903357,267.00629058848,0.173465520886615,0.0130233918784166,0.302078782223742,4.61679826814986,6.01075301925973E-07,0.0912234407561921,1.50824326490052,17.6005268404876,0.00233198654893091,3.98796931966576E-07,1.53870293513294E-05,0.000386575631035379,-1.80387437505896E-08,
19,0.18,-0.0163130216903244,-0.357016118880349,-5.19204747739145,0.273784242416951,5.21542743476655,54.8956198968088,288.460051644745,16.9267130583621,5.09468438031032,52.8795771752643,264.569108256927,0.186570410675908,0.0163124711182383,0.356996285030942,5.19157408437161,7.83219465032564E-07,0.10729975181304,1.71136932252777,19.3856463144944,0.00245400898110498,5.81764611437863E-07,2.15251283020362E-05,0.000526319355169899,-2.80603043174339E-08,
20,0.19,-0.0201824098584419,-0.418226070259138,-5.80273106679477,0.290579982652408,5.77856858411439,57.7761660727563,288.275283778921,16.9033234566378,5.63631699192904,55.4846630256501,261.975823742016,0.199131004897126,0.0201816267235806,0.418199053931298,5.80210530703573,1.0113377124182E-06,0.125502459334086,1.93385225390445,21.2718578860084,0.00257281844377898,8.36151316927811E-07,2.97699868787501E-05,0.000709988978542186,-4.28269684233821E-08,
21,0.2,-0.024696632009961,-0.486094766189839,-6.45009415862126,0.307933532097094,6.37049229885135,60.6543792622862,288.059050463165,16.8779886107572,6.20384986701099,58.0614471988812,259.224420253608,0.211070809479289,0.0246955340868547,0.486058398686042,6.44927545873495,1.2955197574793E-06,0.14603005295011,2.17669009178587,23.2583845456658,0.00268790441378125,1.18609229340476E-06,4.07635717851782E-05,0.000950177373235878,-6.42332843495528E-08,
22,0.21,-0.0299241543780715,-0.561005338299298,-7.13518701635666,0.325934920711361,6.99117345534144,63.5298928347539,287.807927915854,16.8504488686258,6.79699207264128,60.6083208298127,256.312976382679,0.2223077649091,0.029922635107116,0.560956901592819,7.13412570772533,1.64797516364843E-06,0.1690909460743,2.44086998589953,25.3442475117969,0.0027987123720902,1.66301036732958E-06,5.53292229289024E-05,0.00126293027098335,-9.48017756898274E-08,
23,0.22,-0.0359373375870608,-0.643354170294125,-7.85923791630819,0.344683021263558,7.64058308184543,66.4023032030693,287.518310191659,16.8204311561328,7.4154365063034,63.1236578322478,253.239694955725,0.23275440248555,0.0359352600047447,0.643290277720469,7.85787343553783,2.08350502137611E-06,0.194903355584258,2.72736586037085,27.5282445509491,0.00290464433695879,2.30766499510963E-06,7.45207511034072E-05,0.00166865843788677,-1.37851996485878E-07,
24,0.23,-0.042812579394214,-0.733552989461198,-8.62367350451793,0.364285839307325,8.31868797999594,69.2711680023816,287.186409067374,16.7876492177257,8.05885973191138,65.6058165833398,250.002932433059,0.242318066626361,0.042809768757039,0.73346944298161,8.62193224993437,2.62008282864928E-06,0.223695156998503,3.03713585341521,29.8089281825003,0.00300506004699719,3.17275298205348E-06,9.96841586164454E-05,0.00219327106479283,-1.97705462859737E-07,
25,0.24,-0.0506304794679391,-0.832031187124751,-9.43014080479653,0.384860759114964,9.02545032808331,72.1360042727791,286.808254248783,16.7518038516326,8.72692183417241,68.0531419070114,246.601228695934,0.250901208012976,0.0506267143138934,0.83192280663282,9.42793358007823,3.27956884273309E-06,0.255703712976802,3.37111954076281,32.1845839394511,0.003099278888504,4.32620124634511E-06,0.000132534910768103,0.00286957608764351,-2.79932254067277E-07,
26,0.25,-0.0594760285851189,-0.939238387262071,-10.280531050502,0.406534733726539,9.7608272662143,74.9962866505147,286.379693982044,16.7125831424575,9.41926629427738,70.4639673577844,243.033337058612,0.258401752101488,0.059471029926882,0.939098806494223,10.2777500125053,4.08858734552183E-06,0.291175672997643,3.73023494615894,34.6532088680917,0.00318658267058621,5.85532407073488E-06,0.000175254260522784,0.00373900071101624,-3.91645782799254E-07,
27,0.26,-0.0694388248330492,-1.05564728461033,-11.1770055390271,0.429444403961824,10.5247704634553,77.8514455732735,285.896396164549,16.6696626950475,10.1355198899218,72.8366178046517,239.298254333072,0.264713547164243,0.0694322431174366,1.05546870712845,11.1735205501517,5.07960252101943E-06,0.330366742109326,4.11537534425019,37.2124904590205,0.00326621936160952,7.87205554114403E-06,0.000230608794291688,0.00485369396966881,-5.41853022493048E-07,
28,0.27,-0.0806133196264503,-1.18175677602679,-12.1220237366918,0.45373612704443,11.3172256671329,80.7008655061325,285.353850062317,16.6227058749265,10.8752926226471,75.1694123127861,235.395250766203,0.269726895552469,0.0806047190229665,1.18152968343196,12.1176780022756,6.29223618352319E-06,0.373541416714422,4.52740586321542,39.859786210645,0.00333740791142678,1.05195132862558E-05,0.000302098135522513,0.00627908285804206,-7.41868363251809E-07,
29,0.28,-0.0930990966010481,-1.31809541161666,-13.1183738928521,0.479565890178732,12.1381322345369,83.5438831961183,284.747368753314,16.5713640622235,11.6381776754598,77.4606673189728,231.32389966208,0.273329171283191,0.0930879360964421,1.31780821458695,13.1129787405035,7.77487965887471E-06,0.420972685431416,4.96715989661001,42.59210403346,0.00339934429596118,1.39802033042968E-05,0.000394136628525607,0.00809696453954861,-1.00580026530073E-06,
30,0.29,-0.107001186725448,-1.46522519523943,-14.1692064554176,0.507099077717832,12.9874226473573,86.3797859646502,284.072092428715,16.5152769278778,12.4237514036374,79.7087000946849,227.084106495341,0.275405526351694,0.106986797398046,1.46486381611313,14.162535085216,9.58666296811075E-06,0.472941693182715,5.43543533604425,45.4060837086787,0.00345120893441587,1.84862388384316E-05,0.000512275843362241,0.010409229597563,-1.35112101102739E-06,
31,0.3,-0.122430423285993,-1.62374576746335,-15.2780706153999,0.536510052107651,13.8650220092857,89.2078100486607,283.322992696477,16.4540727429479,13.2315733615552,81.911832488697,222.676137315899,0.27583968735887,0.122411981010018,1.62329314085666,15.2698506167161,1.17998574039694E-05,0.529737366785238,5.93299063848434,48.297979617766,0.00349217564523919,2.43320203546754E-05,0.000663475911714327,0.0133423254212443,-1.79933114706929E-06,
32,0.31,-0.139503840748736,-1.79429900787285,-16.4489543451729,0.567981498140193,14.7708475273291,92.0271390028053,282.494878043672,16.3873687340486,14.0611863682818,84.0683949390655,218.100646240225,0.274514843127266,0.139480333430831,1.79373448315952,16.4388587365317,1.45028029478035E-05,0.591656000468387,6.46054074411817,51.2636449595774,0.00352142232569427,3.18899102937312E-05,0.000856435044218036,0.0170525848844187,-2.37673168335537E-06,
33,0.32,-0.158345121892289,-1.97757409784916,-17.6863283331337,0.601703466632119,15.7048079775166,94.8369021769009,281.582400625202,16.3147715002022,14.9121166145739,86.1767307421957,213.358701820185,0.271314622974242,0.158315310165442,1.97687272416101,17.6739648349432,1.78034701210151E-05,0.659000799914161,7.01875286283039,54.2985176686477,0.00353814356248041,4.16295372417419E-05,0.00110198811576914,0.0217325637708965,-3.11531880272101E-06,
34,0.33,-0.179085098039024,-2.17431308953263,-18.9951942553898,0.637872036753965,16.6668031558269,97.6361732845511,280.580064556572,16.2358775086247,15.7838738137715,88.235200564576,208.451812076956,0.266124164232781,0.179047468127429,2.1734447601697,18.9800924501634,2.18337871668032E-05,0.732081383604673,7.60824214934169,57.3976082410997,0.0035415654086341,5.41414815839025E-05,0.00141358696456269,0.0276185512744403,-4.05381775794188E-06,
35,0.34,-0.201862307693375,-2.38531703160877,-20.3811378613878,0.676687494980333,17.656723315339,100.423969080809,279.482235896734,16.1502736889986,16.6759513989373,90.2421871805973,203.381947984642,0.258831266486511,0.201815014909,2.38424546026679,20.362733830742,2.67548882963416E-05,0.811213240472296,8.22956728893586,60.5554896630682,0.00353096259658781,7.01662309574311E-05,0.0018078770652684,0.0349994417622225,-5.23887480957576E-06,
36,0.35,-0.226823619428124,-2.61145270778533,-21.8503873828062,0.718351901902232,18.6744485907899,103.199248168668,278.283154513127,16.0575381474286,17.5878267684084,92.1961004176806,198.151565185723,0.249327628844244,0.226764420458081,2.61013420368525,21.828005333197,3.27634674316718E-05,0.896717143075358,8.88322601737132,63.7662896197767,0.0035056785009213,9.06294516409737E-05,0.00230538754398772,0.0442271833103311,-6.72642849009421E-06,
37,0.36,-0.254124925445032,-2.85366004925153,-23.4098778003122,0.763065884564122,19.7198484119377,105.960909956125,276.976948024326,15.9572410222194,18.5189615817301,94.0953822877242,192.763623717976,0.237510165459599,0.254051097229137,2.85204205193868,23.3827080980565,4.00994546550977E-05,0.988918515765502,9.56965059998855,67.0236851408171,0.00346514821963216,0.000116684804540831,0.0029313541454762,0.0557290498393392,-8.58328414063682E-06,
38,0.37,-0.283931912876218,-3.1129602878861,-25.0673215163705,0.811024449869669,20.7927809073486,108.707793787494,275.557648015422,15.8489455035099,19.4688021077184,95.9385122816253,187.221605529542,0.22328239344135,0.283840155445582,3.11097961497557,25.0343944445183,4.905526943895E-05,1.08814675756858,10.2892032961127,70.3208998080312,0.00340892521284709,0.000149765745256619,0.00371669779099769,0.0700220196100099,-1.0888918481485E-05,
39,0.38,-0.316420920586915,-3.39046492228548,-26.8312859778053,0.862411561890556,21.8930923004784,111.438678274506,274.019208716654,15.7322090371082,20.4367796261571,97.7240128013266,181.529529554478,0.206555886340995,0.316307240724212,3.38804567455547,26.7914404000467,5.99869452904519E-05,1.19473451976562,11.0421718355355,73.6507036159929,0.00333671202640951,0.00019164799095556,0.00469918483462661,0.0877295840630365,-1.37375437923393E-05,
40,0.39,-0.351779889985244,-3.68738557349026,-28.7112787603979,0.917393160169824,23.0206163001795,114.152280854461,272.355528325868,15.6065847289526,21.422310884366,99.4504547014456,175.691964114455,0.187251785578782,0.351639461960525,3.68443663122278,28.663124727171,7.33274636812781E-05,1.30901693842962,11.8287649340594,77.0054155307426,0.00324839573865583,0.000244524617183063,0.00592479910083215,0.109601358234695,-1.72404638151907E-05,
41,0.4,-0.390209419133381,-4.00504481112658,-30.7178405572634,0.976108214491528,24.1751734880451,116.847257604225,270.560473139177,15.4716229595684,22.4247986095848,101.116462910017,169.714036401536,0.165302361490223,0.390036418048193,4.00145684318181,30.6597147129155,8.96026789348148E-05,1.43133082244221,12.6491078747125,80.3769087394955,0.00314408890574452,0.000311096070692734,0.00744936033825681,0.136535918009585,-2.15287552813344E-05,
42,0.41,-0.431923930274063,-4.34488803288356,-32.8626463863615,1.03865731091875,25.356570705299,119.522203340121,268.627904630209,15.3268732065268,23.4436320778004,102.720722095138,163.601438780128,0.140652615120593,0.431711332690604,4.34052992534559,32.7925588295804,0.000109450256337082,1.56201379777565,13.5032381801985,83.7566185219926,0.00302417694708987,0.000394677756046099,0.0093404289320748,0.169607351013728,-2.67563092436191E-05,
43,0.42,-0.477152961716061,-4.70849647988496,-35.1586151275118,1.10508814084475,26.5646004422417,122.175652034619,266.551709585267,15.1718860556876,24.4781877392985,104.261982341255,157.360431620297,0.113261911370174,0.476892307232897,4.70321107386314,35.0741861358828,0.000133642076703763,1.7014034090728,14.3911014003414,87.1355526026123,0.00288937310837276,0.000499328281076605,0.0116795426635999,0.21009607762486,-3.31032639697876E-05,
44,0.43,-0.52614259583026,-5.09760146629004,-37.6200271847462,1.17537711624692,27.7990402335752,124.806077581069,264.325833357428,15.0062153568658,25.5278299008381,105.73906479528,150.997842335633,0.0831056333936963,0.525823702063764,5.09120047418534,37.5184119336373,0.000163110571521827,1.84983617978268,15.3125470356198,90.504303761218,0.00274078236114341,0.000630001937144765,0.0145648380759287,0.259524576752478,-4.07798541860246E-05,
45,0.44,-0.579157035647313,-5.514099891595,-40.2626496039824,1.24940615812091,29.0596520632428,127.411894937442,261.944316244779,14.8294204438687,26.591911463934,107.150867238511,144.521060241538,0.0501768468889811,0.57876765765592,5.5063578373855,40.1404486854437,0.000198979427003282,2.00764663230262,16.2673246142743,93.8530643902533,0.00257997583211761,0.000792729553076479,0.0181141166788394,0.319698737624803,-5.00306871840789E-05,
46,0.45,-0.636480343150552,-5.96007108616685,-43.1038673025279,1.32693350130364,30.3461817827207,129.991461678888,259.401332923483,14.6410682892078,27.6697747182607,108.4963695351,137.938026766965,0.0144879603870358,0.636005766659963,5.95071808753507,42.9570204774241,0.000242599007261801,2.175166269731,17.2550799358373,97.1716425867726,0.00240907757324246,0.000994832506161064,0.0224684248707184,0.392755652932983,-6.11394306126653E-05,
47,0.46,-0.698418352727498,-6.43779501121856,-46.162818110375,1.40755713215677,31.6583585469899,132.543079986659,256.6912347711,14.4407353960395,28.7607521886741,109.774638901196,131.257220435066,-0.0239276372607719,0.697840908536754,6.42650818911968,45.986478303542,0.000295586657117503,2.35272252093473,18.2753514882274,100.4494792627,0.00223086563045179,0.00124517540949644,0.0277962261050222,0.481218768171868,-7.44338536723066E-05,
48,0.47,-0.765300773244862,-6.9497717892504,-49.4605279828327,1.49066923864156,32.9958942726728,135.064999097409,253.808594794355,14.2280091391314,29.8641675337411,110.984834930312,124.487635863489,-0.0650139901335339,0.764599257868326,6.93616505329774,49.2489120558263,0.000359871695044197,2.54063765067453,19.3275670387587,103.675665647865,0.00204888934655158,0.00155446383231133,0.034298254463189,0.588061402737918,-9.02910943115944E-05,
49,0.48,-0.837483491658264,-7.49874247392081,-53.0200408858847,1.57539983204949,34.3584831230351,137.555418231481,250.748254721342,14.0024881476646,30.9793364929755,112.126214299238,117.638755807435,-0.108691083337358,0.836632476534643,7.48235438929243,52.7662531977719,0.000437744309763035,2.73922763649585,20.4110403915981,106.838960453446,0.0018676044749569,0.00193559435804125,0.0422131503015516,0.716779753121783,-0.000109142917752889,
50,0.49,-0.915351089701871,-8.08771087131769,-56.8665353029377,1.66054754634365,35.7458010247044,140.012490011281,247.505373621866,13.7637811709415,32.1055678791464,113.198135063942,110.720514957403,-0.15485351754196,0.914320098122345,8.06799026445224,56.562359505607,0.000531906604250431,2.94880101397621,21.5249682955104,109.927805866377,0.00169252671226285,0.00240406535143928,0.0518239907546982,0.871476565644773,-0.000131480569547421,
51,0.5,-0.999319582674744,-8.71996608697628,-61.0274158324128,1.74449562256078,37.1575052210167,142.434324370393,244.075477169269,13.5115036819628,33.2421646110285,114.200060435119,103.743253782693,-0.203369466619866,0.998072109889778,8.69625499306783,60.663069761791,0.000645522509897565,3.16965769171172,22.6684274764815,112.930341470441,0.00153040224370907,0.00297845799472939,0.0634658401101704,1.05695670722306,-0.000157858587045911,
52,0.51,-1.08983938517614,-9.39910528059933,-65.5323636385457,1.82511138826022,38.5932338668444,144.818992940116,240.454506337019,13.2452712589742,34.3884247807359,115.13156189681,96.7176601483625,-0.254080106593356,1.08833173287799,9.3706187762024,65.0962115904812,0.000782260973890045,3.40208773712541,23.8403717605173,115.834415155378,0.00138939016577083,0.00368099846109203,0.0775344565805393,1.27883583945009,-0.00018889658808083,
53,0.52,-1.18739850220557,-10.1290558447761,-70.4133231954797,1.89962837952768,40.0526056695345,147.164533881365,236.638863913409,12.9646885621428,35.5436427482469,115.992321496605,89.6546956866984,-0.306799814146351,1.18557839370108,10.0948582447889,69.8915393708402,0.00094632337385602,3.64637013378916,25.0396292434593,118.627590108578,0.00127924520536604,0.00453821350814808,0.0944963014354985,1.54366327174603,-0.000225277570500241,
54,0.53,-1.29252593448786,-10.9140958610889,-75.7043943371221,1.96451198581376,41.5352195801495,149.468957105299,232.625456692207,12.6693325405969,36.7071102537971,116.782133089972,82.5655029253701,-0.361317596732136,1.29033087134047,10.8730726932034,75.0805708937481,0.00114244111466737,3.9027715104858,26.2648994583633,121.29714712406,0.00121147856947966,0.0055816932640715,0.114900001715585,1.85905977150757,-0.000267740594341779,
55,0.54,-1.40579527308913,-11.7588711961604,-81.4415874845832,2.01531265799794,43.0406545384832,151.730249793716,228.41173052415,12.3587284629878,37.8781175363536,117.500902260746,75.4612879059426,-0.417400450835912,1.40315058781649,11.7096963014525,80.6962805809753,0.00137582231948191,4.17154484172857,27.51475048887,123.830081767446,0.00119945811371888,0.00684897648792309,0.139389415651503,2.23387055351183,-0.0003170648498507,
56,0.55,-1.52782843889252,-12.6684069428667,-87.6623853376062,2.04651605355505,44.568469274232,153.946382088346,223.995694555024,12.0323176426106,39.0559544432279,118.148644561224,68.3531714049149,-0.474799664698499,1.52464499150386,12.6095039949572,86.7725929999646,0.00165201694441058,4.45292811895708,28.7876159820529,126.213096484205,0.00125838396136225,0.00838457501821735,0.168718435760136,2.67833272966368,-0.000374041034911823,
57,0.56,-1.65929949540836,-13.6481100407345,-94.4050354427338,2.05140797150139,46.1182021651368,156.115312763919,219.375929886241,11.6894166281536,40.2399115118364,118.725481613872,61.2519998305996,-0.533261488276524,1.65547095428197,13.5776077379353,93.3436023350686,0.00197665720015893,4.74714299123511,30.0817920307739,128.43258864566,0.00140503982366126,0.0102411553271177,0.203767631571915,3.20425499467134,-0.00043942473235107,
58,0.57,-1.80093842629048,-14.7037587681814,-101.707473983547,2.02198467595496,47.6893711507246,158.23499463043,214.551576525283,11.3291696190267,41.429280999419,119.231634487745,54.1681043590095,-0.592544053962716,1.79633806638034,14.6194389485235,100.442420645187,0.00235501506926403,5.05439337412879,31.395433929802,130.474636950645,0.00165717212821865,0.0124808958378086,0.245562772385467,3.82520500729542,-0.000513865272369901,
59,0.58,-1.9535347188046,-15.8414733241583,-109.605751027799,1.94895722043131,49.2814736973119,160.303379321882,209.522290801583,10.9504995825682,42.6233578298822,119.667413601437,47.1109938677203,-0.65244284265125,1.94801166286599,15.7407113047153,108.099529479054,0.00279130239635882,5.37486402576317,32.7265528705109,132.324990754663,0.00203229044042431,0.0151770385903811,0.295295166856705,4.55669646922092,-0.000597802788735718,
60,0.59,-2.11794052767932,-17.0676598419345,-118.131790755925,1.82192189353851,50.893986805974,162.318421018501,204.288163380035,10.5520697386339,43.8214404184971,120.033204206937,40.0889637734987,-0.712827116487796,2.11131534982969,16.9473564239249,116.340475412803,0.00328762529100055,5.70871909015844,34.0730127377425,133.96907006659,0.0025456227882222,0.0184156524495218,0.354343592233172,5.41636287098842,-0.000691326576158076,
61,0.6,-2.29507310596603,-18.3889178454434,-127.310277052703,1.62979609062106,52.5263670500018,164.278078513942,198.849585621281,10.1322762731792,45.0228313245905,120.329446274308,33.1085991509935,-0.773689139760669,2.28713271255095,18.2454227009553,125.182710786191,0.00384250126513525,6.05610061029424,35.4325273253204,135.391988497962,0.00320692185059449,0.0222976216151555,0.424297337274985,6.42409772130062,-0.000793990652041849,
62,0.61,-2.48591607598655,-19.8118983393824,-137.154406899409,1.36164376526462,54.1780506216934,166.180314876933,193.207049408566,9.68930497874313,46.2268376692554,120.556607330114,26.1741469051902,-0.83520596711903,2.47640777804124,19.6409249669567,134.631338330849,0.0044488686453565,6.41712701757941,36.8026585142698,136.57861781046,0.00401584926411862,0.0269408667275225,0.506979518180784,7.60213115385548,-0.000904589352128523,
63,0.62,-2.6915189693859,-21.343096452349,-147.660205551464,1.00802396559406,55.8484533599164,168.02309377031,187.36086292661,9.22129642685202,47.4327712392295,120.715146518442,19.2867290616914,-0.897809134383324,2.68014366633874,21.139629640534,144.673477185678,0.00509158524324215,6.79189161138584,38.1808162854201,137.513721370081,0.00495584309244756,0.0324827950072862,0.604469308192946,8.97499941322256,-0.00102090884178179,
64,0.63,-2.91299428685296,-22.9885589832883,-158.799057332434,0.562966639896345,57.5369707194996,169.804371288357,181.310762731427,8.72666966071244,48.6399481794049,120.805467884672,12.4433687839815,-0.962249835701513,2.89939869582674,22.7467568604457,155.270937130022,0.00574455592227257,7.18046105318158,39.5642618947587,138.182195234415,0.00598680224463531,0.0390829588888433,0.719121006164442,10.5693462319742,-0.00113949100215629,
65,0.64,-3.15151111386037,-24.75348370153,-170.508090018935,0.0265787713604464,59.2429776311311,171.52208197657,175.055401685745,8.20464114113642,49.8476881553844,120.827860690075,5.63580475562334,-1.02963607030211,3.13527900749147,24.4665781062269,166.350883884419,0.0063678746982035,7.58287391600853,40.9501161547578,138.569470014185,0.00703769752479139,0.0469258773094365,0.853576915138832,12.4134732388022,-0.00125547324896362,
66,0.65,-3.40828408267593,-26.6416845248935,-182.67808601303,-0.591923656149598,60.9658281862603,173.174117546034,168.591694450783,7.65592737554383,51.0553128453173,120.782424552491,-1.15091847375135,-1.10140610253736,3.38892654667673,26.3018857492033,177.794227492903,0.00690572287852624,7.99913935329075,42.335375558887,138.66214375593,0.00800133811795473,0.056223937655503,1.0107697795374,14.5365308192796,-0.00136259530738084,
67,0.66,-3.68455620621499,-28.6548959631365,-195.13872158109,-1.27128842030371,62.7048550663069,174.75829675585,161.914009563123,7.08352361369358,52.262143599476,120.668977536507,-7.94007168062401,-1.17919584434739,3.66150100328636,28.2533110414769,189.42160863876,0.00728617684893797,8.42923598303879,43.7169399569547,138.448934452958,0.00873472383257207,0.0672202466449732,1.19390904430634,16.9672134588167,-0.00145347792935477,
68,0.67,-3.98157385484601,-30.791893384902,-207.641216958558,-1.9763269337401,64.4593686208857,176.27232511943,155.013213089583,6.49331621369568,53.4674980912039,120.486946221752,-14.7650166385997,-1.26456748179955,3.95415409256064,30.3184711182151,200.977151933716,0.00742438452023178,8.87311112598654,45.0916565827364,137.92205692069,0.00906902045005214,0.0801912328184011,1.40644352838483,19.7317995722082,-0.00152025802731378,
69,0.68,-4.30055195528925,-33.0474155387899,-219.838995237119,-2.65825880936079,66.2286554887311,177.713743651456,147.875597966122,5.89416651406909,54.670685781252,120.235238578017,-21.6710069194179,-1.358604578943,4.26799441119727,32.4909363335309,212.110675390097,0.00723047167662988,9.3306805896701,46.456386307915,137.079135834429,0.00883214638918992,0.0954487208507049,1.65199145179954,22.8513647588731,-0.00155558980840477,
70,0.69,-4.64262744602086,-35.4108960218115,-231.267789079668,-3.25844544051161,68.0119766523289,179.0798670203,140.481780636116,5.2971036814028,55.8710020399587,119.912103552195,-28.7167765901336,-1.46144681440952,4.604041111161,34.7590301268043,222.359874577439,0.00662268106892768,9.80182925340796,47.8080987553399,135.925752977491,0.00788331244386699,0.113341100573209,1.93422752345638,26.3380153730634,-0.00155389100551527,
71,0.7,-5.00879925100136,-37.8650452757358,-241.327882168211,-3.71594671457078,69.8085648299958,180.367713446533,132.805717154063,4.71349178868397,57.0677208328978,119.514985999876,-35.9755320755452,-1.57191344237729,4.96316491651042,37.1045084641566,231.135205241003,0.00554445010107733,10.2864127761175,49.1440028469623,134.478674233718,0.00615285251302962,0.134253108758612,2.25671666492036,30.1900601816417,-0.00151256412534726,
72,0.71,-5.39985369902829,-40.3843779242288,-249.272843697488,-3.97796511154791,71.6176211467068,181.573931705136,124.814085627585,4.15249707815927,58.2600859933201,119.040392185193,-43.5347820490336,-1.68739965564131,5.34601572361574,39.5012178560467,237.711768214947,0.00398176220647382,10.7842608081715,50.4617177300069,132.769686647377,0.00367474447347447,0.158603645119387,2.62268591794118,34.386192708029,-0.0014328309994538,
73,0.72,-5.81627561164442,-42.9338528767987,-254.211070862472,-4.01067003540097,73.4383110982645,182.694734711591,116.466393149603,3.61867724115636,59.4473012969388,118.483789294222,-51.4942550391204,-1.80417335567585,5.75293734834308,41.9139003108654,241.234298193018,0.00197527086862775,11.2951821195499,51.7594848377158,130.84977216016,0.000597527072044075,0.186840982856818,3.03473143527737,38.8790278760094,-0.00131986416656207,
74,0.73,-6.25814738317318,-45.4678804499195,-255.128273864887,-3.80700345578142,75.2697599424702,183.725854114299,107.716269558887,3.11069792618657,60.6285198331575,117.839571181039,-59.9610272966343,-1.91804689025521,6.18387206639006,44.2973944312921,240.742940254996,-0.000378143915397762,11.8189720286661,53.0364140887817,128.793036155719,-0.00283492731278094,0.219434748861849,3.49446747038739,43.5887423639387,-0.00118210021533746,
75,0.74,-6.72504135571626,-47.930035956861,-250.939883429754,-3.38863837330759,77.1110478201226,184.662535185633,98.5144600707556,2.6218129120956,61.8028335266373,117.101129530011,-69.0410217794842,-2.02522084577075,6.63826047886966,46.5965579613713,235.228041269304,-0.00293681338912213,12.3554223902848,54.2927453411825,126.699410879828,-0.00632941576181349,0.256864190297495,4.00213966759324,48.3980864731927,-0.00102989971324917,
76,0.75,-7.21591449551,-50.2538726727786,-240.580946013573,-2.80128622184242,78.9612051193776,185.499594388387,88.81395057324,2.14196024542639,62.9692640679692,116.261070914626,-78.8263887526746,-2.12300669383906,7.11494574046304,48.7472788437097,223.720461042217,-0.00553641479267739,12.904334137428,55.5300908478258,124.694744363025,-0.00960111657325843,0.299602564071347,4.55624488069855,53.1505661289153,-0.000873936015166407,
77,0.76,-7.72901827852815,-52.3652052832139,-223.13589688649,-2.10503398138622,80.8192088194446,186.23156080011,78.5773665467386,1.6606054618063,64.1267568813694,115.311610961244,-89.3790821244649,-2.21019541094938,7.61209476859348,50.6789078547836,205.418546521085,-0.00801639512128524,13.4655319483312,56.7516084607389,122.926635571458,-0.0124236223224389,0.348098014211286,5.15322072848786,57.6539263767035,-0.000723744593765859,
78,0.77,-8.26183980262284,-54.1860913883522,-198.000648649699,-1.36299671962135,82.6839807272535,186.852914413944,67.7862187643441,1.1692487018552,65.2741799619669,114.245152665851,-100.712249177892,-2.28700874303341,8.1271517331557,52.318293787442,179.843083179227,-0.010243056007988,14.0388800450206,57.9620443582165,121.554548706936,-0.0146572072955328,0.402752018606853,5.78728332300357,61.6908882359307,-0.000586742946687181,
79,0.78,-8.811091082395,-55.6404469396986,-165.055347106184,-0.631576198715377,84.5543885744293,187.358417630734,56.4507600028382,0.662860825525801,66.410329298114,113.055016046476,-112.772669267692,-2.35473883191436,8.65683959276233,53.5953111634315,146.998082740097,-0.0121237905067596,14.6242975134302,59.1675859720196,120.73361348442,-0.0162519564249384,0.463897288031123,6.45049177089302,65.0380735034069,-0.000467826574982884,
80,0.79,-9.37276083950123,-56.6608164754571,-124.811455056667,0.0456679930124793,86.4292507899165,187.743512373491,44.6183667485496,0.140108552124914,67.5339420215391,111.73623676204,-125.428884673238,-2.41526246960212,9.19722240372445,54.4493706443018,107.501794869802,-0.0136108664006041,15.2217710334996,60.3754878433464,120.593214467672,-0.017231824334791,0.531777690643506,7.13309455748234,67.4920637414463,-0.000369464645373083,
81,0.8,-9.94223607262631,-57.1953793727407,-78.4881307735536,0.640178872499513,88.3073453586255,188.00472982484,32.377848109266,-0.397305436255587,68.6437173685543,110.286306443015,-138.470050514073,-2.47059612730957,9.7438339363342,54.8359938365476,62.645253204619,-0.0146966470385131,15.8313627391519,61.5934772742025,121.21371888447,-0.0176697586006846,0.606533097786455,7.82416326635041,68.898896824093,-0.000292120550518216,
82,0.81,-10.5144898040617,-57.2139702989641,-27.9777620186893,1.13744611745002,90.1874225475866,188.140042120437,19.8573528188811,-0.945696862557561,69.7383441321292,108.705706862382,-151.619115978853,-2.52258324586343,10.2918674549732,54.732272929222,14.3420216664858,-0.0154038845539595,16.4532112825237,62.8290048483332,122.606692259329,-0.0176628799082671,0.688191772905942,8.51245188056713,69.1809051646846,-0.000234810431493412,
83,0.82,-11.0843188715057,-56.7118890448738,24.3169517491711,1.53425619469861,92.0682205554796,188.149084951324,7.21483671271562,-1.50044096600157,70.8165318688903,106.998110037041,-164.560559154298,-2.57273026114599,10.8364096195489,54.1400723152993,-35.0441311590751,-0.0157746712748155,17.0875251093058,64.0884586125319,124.704577984214,-0.0173130080849354,0.77667197298217,9.18735545881192,68.3538957714821,-0.000195655117848335,
84,0.83,-11.6466049455094,-55.7106462957423,75.7560072845045,1.83535319174075,93.9484825203555,188.033201365111,-5.37786704357053,-2.05677564625633,71.8770421300314,105.170179354279,-176.978408868921,-2.62216175262781,11.3726917272197,53.0862226459803,-82.9719333614397,-0.0158605492921338,17.7345683029935,65.3764872190436,127.364212474762,-0.016714143920445,0.871792954717581,9.83980536141361,66.5292166796958,-0.000172341078045306,
85,0.84,-12.1965665777947,-54.2554562958472,123.790646271364,2.05032205085721,95.8269730059593,187.795295505903,-17.7542269765932,-2.61030709078407,72.9187157723886,103.230996057366,-188.59650527705,-2.67165016453861,11.8963271680456,51.619615301344,-127.040280651096,-0.0157149843687562,18.3946407661043,66.6955614571798,130.384837522674,-0.0159461444747527,0.973293952989337,10.4629468529712,63.8991476055237,-0.000162458810347199,
86,0.85,-12.7299719276473,-52.4100231173571,166.272955937569,2.19109448333248,97.7024921911534,187.439527773682,-29.7711218986801,-3.15725758327305,73.9404930907562,101.191220251521,-199.211731208333,-2.72168046375338,12.4035066239039,49.8058058275353,-165.278610786217,-0.0153884084592663,19.0680555473757,68.0458476474545,133.536810957446,-0.0150728568327968,1.0808583927552,11.0524980884881,60.7088953320316,-0.000163722359383341,
87,0.86,-13.2432902663333,-50.2497154984823,201.678354347297,2.2701749251663,99.573886475673,186.970914844712,-41.3219124347312,-3.69453218381547,74.9414248941022,99.0621462015546,-208.713033941435,-2.77252258126764,12.8911313619712,47.7202322423714,-196.346409012604,-0.0149254656895515,19.7551164844173,69.4253905977479,136.593977416734,-0.0141429392843498,1.19413996696762,11.6067674637951,57.2222039100022,-0.000174091424973235,
88,0.87,-13.7337725923296,-47.8544182788872,229.20234563816,2.2995123616887,101.44005492513,186.394909357282,-52.342217996637,-4.21967920489454,75.9206742966893,96.8548138780235,-217.083536406405,-2.82429674362846,13.3568770655557,45.4412989430213,-219.608495584245,-0.0143638866730821,20.4560989524284,70.8305361405883,139.362069018194,-0.0131919898988945,1.31278736851413,12.1263805477776,53.6886678219683,-0.000191822635852179,
89,0.88,-14.1994639826401,-45.3021795931908,248.731577090364,2.28987500409879,103.299951692716,185.717024380762,-62.808386826648,-4.73080127253714,76.877510443146,94.5792990679293,-224.387876971642,-2.87702570238061,13.7991923932619,43.0443774809029,-235.09025163891,-0.0137344266116741,21.1712355894659,72.2564850307831,141.697595920963,-0.0122450777245318,1.43646524173149,12.6138153131189,50.3191140513467,-0.000215474441193924,
90,0.89,-14.6391596032211,-42.6643710438539,260.720627278523,2.25057826558124,105.152585096674,184.942544518191,-72.7304746214292,-5.22645328744786,77.8112963135446,92.2442437623143,-230.750197923539,-2.93067313908675,14.217245020404,40.5973660423837,-243.346120923217,-0.0130614126711448,21.9007077455124,73.6978672266959,143.515212826742,-0.0113191686942783,1.56486999642796,13.0728568461911,47.2720551734442,-0.000243884932721926,
91,0.9,-15.0523211603159,-40.0026202587362,266.020401462229,2.1894393619699,106.997014316966,184.076338945954,-82.1423904669889,-5.70554703970939,78.7214730686283,89.8566298643584,-236.329088437942,-2.98517004528903,14.610832067515,38.1580032913839,-245.286929251828,-0.0123635783422575,22.644642398698,75.1492499965515,144.784869591154,-0.0104252129252469,1.69774017547959,13.5080663054107,44.6508225536605,-0.000276136314934244,
92,0.91,-15.4389711938019,-37.3674022746114,265.701445601026,2.11286340367753,108.832344713056,183.122770053663,-91.0917225112911,-6.16727102513304,79.6075432006047,87.4217577590566,-241.294656376889,-3.04043169957351,14.9802719070653,35.7727809778964,-242.007500418512,-0.0116549787759766,23.4031135956913,76.6055298208634,145.522056560846,-0.00956982553858777,1.83486186298983,13.9243273018197,42.5087303146641,-0.000311514926985402,
93,0.92,-15.7995802307766,-34.7979527930719,260.902435018706,2.0259954630148,110.657722628939,182.085678374481,-99.6309994684271,-6.61102741366581,80.469054254168,84.9433715129092,-245.810788405009,-3.09636780427834,15.3262916525788,33.4770991453048,-234.642468141847,-0.0109458687862978,24.1761471533835,78.062192982975,145.774906319123,-0.00875657994150674,1.97607008179324,14.3264995249859,40.8588297065578,-0.00034947207849377,
94,0.93,-16.1349579536833,-32.3230885837427,252.71840841838,1.93289675198688,112.472330329635,180.968419959527,-107.811235091893,-7.03638477428971,81.3055842800694,82.4238709067524,-250.023563089588,-3.1528879207901,15.6499206742636,31.2962481294091,-224.262741923549,-0.0102434848677288,24.963727344192,79.5154550770999,145.611244445989,-0.00798696987599936,2.12124728696598,14.7191829272873,39.6851652655499,-0.000389588446054698,
95,0.94,-16.4461554562769,-29.9625462730851,242.130494235246,1.83672017581418,114.275381478615,179.773933818296,-115.677860126085,-7.44304382523049,82.1167296277004,79.8645601403236,-254.055289472709,-3.20990383662803,15.9523964558445,29.2468388398673,-211.812891644751,-0.00955270979847127,25.765804467625,80.9623034351829,145.107537626655,-0.0072611061635276,2.27032000379084,15.1065791732077,38.9533646780604,-0.000431543167772847,
96,0.95,-16.7343821482817,-27.7285307796441,229.97104922337,1.73987207891715,116.066117363315,178.504821642496,-123.268693363104,-7.83081324667247,82.9020952507184,77.2658971239911,-258.002886759454,-3.26733003883687,16.2350857272894,27.3383879226934,-198.082573174379,-0.00887661965041556,26.5823024779906,82.4004706021739,144.34058311607,-0.00657821001862435,2.42325448144254,15.4924295171455,38.6193895370132,-0.000475087820768883,
97,0.96,-17.0009382562698,-25.6272592262682,216.91494665987,1.64415432429345,117.843803925387,177.163427468831,-130.613419343651,-8.19959288619685,83.6612874096649,74.6277210961113,-261.939151556012,-3.32508310055351,16.4994213540749,25.5748595825643,-183.702480856082,-0.00821692380527864,27.4131261125113,83.8283648765277,143.381981463583,-0.00593695527236964,2.58005201577808,15.8800071882077,38.6360641113095,-0.000520024956269749,
98,0.97,-17.2471621674595,-23.6603714403898,203.487748125877,1.5508852070371,119.607729554214,175.75190984191,-137.734039752156,-8.54936217124333,84.3939084915296,71.9494474748892,-265.9156393355,-3.38308051348507,16.7468539139128,23.9560491781142,-169.155657191465,-0.00757431296305944,28.2581671998974,85.2449787951204,142.294982855496,-0.00533570117357145,2.74074438639082,16.2721449504727,38.9575000561896,-0.000566190635403944,
99,0.98,-17.4743909213423,-21.8261439270377,190.083123080455,1.46100010152917,121.357203547795,174.272302823473,-144.645859202495,-8.88017204548793,85.0995535973039,69.230226697199,-269.966208275336,-3.44123930437517,16.9788160754764,22.4787564850891,-154.796791511743,-0.00694873089710721,29.1173100087579,86.6497905776848,141.133127225268,-0.00477264763742685,2.90538967974586,16.6712826012532,39.541780826506,-0.000613440342270879,
100,0.99,-17.6839317643126,-20.1204891473583,176.984005473605,1.37513390748847,123.091555122502,172.726564783189,-151.358688173239,-9.19213919020664,85.7778085424793,66.4690686233984,-274.110601672465,-3.49947464026388,17.1966975984183,21.1377383959927,-140.874312012355,-0.00633958462245129,29.9904356180909,88.0426682602913,139.940106006042,-0.00424593662889902,3.07406863929154,17.0795233959909,40.3523385400134,-0.000661637674473801,
101,1,-17.8770426501354,-18.5377492136357,164.383946402017,1.29368778935235,124.810132851156,171.116615480994,-157.878058943084,-9.48544165251842,86.4282489454163,63.6649366023921,-278.357714562288,-3.55769853882858,17.401828807201,19.9264554409087,-127.552022171954,-0.00574590575662562,30.8774253675209,89.4237820821395,138.75036858759,-0.00375371690143322,3.24688159229485,17.4986920485206,41.3584248793294,-0.000710645278609544,
