Atsurak/RIA_Lab/PUMA/g850.csv
frame, time,Joint6: JointValue (degree),Joint6: JointVel (degree/s),Joint6: JointAccl (degree/s^2),Joint6: GenForce (N.m),Joint1: JointValue (degree),Joint1: JointVel (degree/s),Joint1: JointAccl (degree/s^2),Joint1: GenForce (N.m),Joint2: JointValue (degree),Joint2: JointVel (degree/s),Joint2: JointAccl (degree/s^2),Joint2: GenForce (N.m),Joint3: JointValue (degree),Joint3: JointVel (degree/s),Joint3: JointAccl (degree/s^2),Joint3: GenForce (N.m),Joint4: JointValue (degree),Joint4: JointVel (degree/s),Joint4: JointAccl (degree/s^2),Joint4: GenForce (N.m),Joint5: JointValue (degree),Joint5: JointVel (degree/s),Joint5: JointAccl (degree/s^2),Joint5: GenForce (N.m),
1,0,-1.17180699756807E-13,-4.15922763226459E-11,-2.27907931421793E-16,0,4.11458518420348E-06,0.000778445355888823,0.0867736012496479,0.00479109891999635,0.0185893508283878,3.71786995658606,371.935810653825,-0.00526026094091137,0.0184098446135042,3.68178973023892,368.362154697134,0.00526075213600896,-4.11458506704127E-06,-0.00077844531431047,-0.0867736012496932,2.14697734434309E-20,0.000186730103443008,0.0374855161734017,3.7221419064244,4.52249830527074E-05,
2,0.01,-1.07674186945713E-12,-1.07897659912813E-10,-1.0897185764216E-08,1.72753026384023E-14,1.37881843384192E-05,0.00102352067432483,0.0600977134846229,0.0215607522907917,0.0743425177764494,7.43573679790935,371.935685264516,-0.0238101668883637,0.0736139029436484,7.36142955232525,368.254667765996,0.0237970948886888,-1.37881832628582E-05,-0.00102352056675106,-0.0600977025936131,-1.16189955959626E-10,0.000755136598587613,0.076644223077157,3.80581704472688,0.000203483959011719,
3,0.02,1.16126173606346E-12,9.6097080076946E-10,1.45256656115253E-08,1.94750988974137E-14,2.10232020397872E-05,0.000202026316012284,-0.0199212345261876,0.0359337017659453,0.167259440459979,11.1535937634845,371.935126749893,-0.0395433926209776,0.165579921135845,11.0367656806846,367.932012792434,0.0396704641027196,-2.10232032105646E-05,-0.000202027278356885,0.019921219930067,6.621233430426E-11,0.00173031144746438,0.119149670126189,4.05686050958679,0.000339146728840344,
4,0.03,3.35602737012759E-11,6.83064543587802E-09,2.5737955969982E-07,-2.15593310181023E-13,1.2492355367057E-05,-0.00221920466957042,-0.153279606384024,0.0503070338648082,0.297339957499734,14.8714268011925,371.933588151208,-0.0550699744474272,0.294254075472998,14.7056354789859,367.393523196675,0.0555573137535774,-1.24923889463506E-05,0.00221919784034754,0.153279348909681,7.43524650529893E-10,0.00315408266008985,0.166676978187752,4.47539225548928,0.000474824013683418,
5,0.04,1.78763299991746E-10,2.52732252635962E-08,1.04248437463528E-06,-1.39103086058749E-12,-3.04611640362985E-05,-0.00677334933830193,-0.33997528600241,0.0646824637361796,0.464583715388612,18.5892109173347,371.930157597694,-0.0703074852959347,0.459560862310936,18.3658631628071,366.638096567307,0.0714619427091694,3.04609853920637E-05,0.0067733241024377,0.339974244573046,2.2384570810087E-09,0.0050850335033883,0.220903522680688,5.06160534951325,0.000610512134381647,
6,0.05,6.25880463127511E-10,7.02011683737965E-08,2.87375677047313E-06,-5.23248945447058E-12,-0.000131824290548245,-0.0139937085555124,-0.58001359047062,0.0790633039309694,0.668990040846196,22.3069065208025,371.923557816553,-0.0851722556375272,0.661402945775544,22.0152556542245,365.664207348322,0.0873875565701308,0.000131823665832851,0.0139936385667724,0.580010724412198,4.97682099404192E-09,0.00759852796013191,0.283509494313737,5.81575574932547,0.000746197885982971,
7,0.06,1.74448618463166E-09,1.64308265857083E-07,6.48581451574846E-06,-1.54727456083474E-11,-0.000320916274552723,-0.0244139151926929,-0.873415543424721,0.09345493112907,0.910557776591995,26.0244557593955,371.912145445948,-0.0995790296291368,0.899660964989693,25.651598638112,364.469924537595,0.103335959843558,0.000320914535836289,0.0244137517110658,0.87340908951198,9.52042181674112E-09,0.010786741014443,0.356178297499782,6.73814805362768,0.000881855809113332,
8,0.07,4.18889297283691E-09,3.4252411809774E-07,1.2914362542694E-05,-3.9533201506812E-11,-0.000632393524216081,-0.0385682603858088,-1.22022850655777,0.107865251584456,1.18928508044906,29.7417788463198,371.893910150897,-0.113440632420939,1.17419330309223,29.2726528692023,363.052934332589,0.119307254007197,0.000632389356802769,0.0385679204761458,1.22021569459128,1.66016187672409E-08,0.0147586919443801,0.44059674720608,7.82911728752239,0.00101744547771765,
9,0.08,9.04206387466148E-09,6.56538210528277E-07,2.35893801719989E-05,-9.12557301101139E-11,-0.00110625839710905,-0.0569921614447514,-1.6205391692372,0.122305164898206,1.50516918767008,33.4587703749246,371.866473543264,-0.126667651666967,1.48483582079696,32.8761507780046,361.410567638926,0.135299543108835,0.00110624942218413,0.0569915121104184,1.62051586076229,2.71603583473957E-08,0.0196402784143596,0.538455025930949,9.08900680524679,0.00115290881053883,
10,0.09,1.80114280468696E-08,1.18072263948659E-06,4.04571303071689E-05,-1.95159117203212E-10,-0.00178787347586654,-0.0802227950832159,-2.0744889007873,0.136789025681339,1.85820613635883,37.175295619787,371.827087909391,-0.139168136627873,1.83140155771482,36.4597934225136,359.539832336145,0.151308648734484,0.00178785565001315,0.0802216323061085,2.07444913413948,4.23847568852701E-08,0.0255743087828007,0.651446363651787,10.5181424142542,0.0012881674159287,
11,0.1,3.36926422950418E-08,2.01988619265546E-06,6.61396889245238E-05,-3.92838759770552E-10,-0.00272798309943211,-0.108799919807192,-2.5822914773323,0.151335102613052,2.24839045584151,40.8911868223477,371.772634752494,-0.150847318657434,2.21368040512457,40.0212478312335,357.437450172255,0.167327836395068,0.00272794987412938,0.10879794126348,2.58222690015072,6.37566335111876E-08,0.0327205296757539,0.78126640498673,12.1168028479463,0.00142311998225279,
12,0.11,5.99223454767788E-08,3.31943563149494E-06,0.000104144180614323,-7.5229696939058E-10,-0.00398274416106561,-0.143266911593142,-3.1442532056742,0.165966034331524,2.6757148178251,44.6062394594605,371.699623162093,-0.16160735730811,2.63143875432446,43.5581447813908,355.099898134376,0.183347555617754,0.00398268533183414,0.143263681578764,3.14415237317893,9.31037842316025E-08,0.0412556455279193,0.929612229473803,13.8851867396966,0.00155763972919345,
13,0.12,1.02247626983795E-07,5.27871287701721E-06,0.000159138342933808,-1.3811849761391E-09,-0.00561376842763576,-0.184172037443607,-3.76079548099081,0.180709281509067,3.14016965016478,48.3202084934503,371.604188029716,-0.171347116771738,3.08441912512658,47.0680770542873,352.52345411694,0.199355196281811,0.00561366858648412,0.184166942263334,3.76064299445069,1.3266124899008E-07,0.0513733264611247,1.09818099281913,15.8233762783186,0.00169157193874545,
14,0.13,1.68548829415816E-07,8.16853110625329E-06,0.000237314576386647,-2.44515742208608E-09,-0.00768817888363025,-0.23206999207313,-4.43247983367584,0.195597574354336,3.64174271304978,52.0328046026139,371.482088139141,-0.179961977876388,3.572339779464,50.5485982075435,349.704246681445,0.215334864002366,0.00768801536936083,0.232062183807622,4.43225528834084,1.85144367454663E-07,0.0632842005599958,1.28866815922257,17.9312977549022,0.00182473158856323,
15,0.14,2.69864108728218E-07,1.23542618889255E-05,0.000346871424610246,-4.19278674125734E-09,-0.0102786828601231,-0.287523723900689,-5.16003554390058,0.210669354642441,4.18041863740885,55.7436903915617,371.328704170869,-0.187343691372018,4.09489432546599,53.9972219014793,346.638308672761,0.231267177633351,0.0102784230781997,0.287512050049789,5.15971224893057,2.53837061548869E-07,0.0772158263184101,1.50276529747753,20.2086792429963,0.00195690111461598,
16,0.15,4.2147970451421E-07,1.83262445530053E-05,0.00049864963949219,-6.98875942346834E-09,-0.0134636649764921,-0.351106577761047,-5.94438993095522,0.225969211187462,4.75617842533326,59.4524765814192,371.139036674564,-0.193380278750471,4.65175131771524,57.411421814073,343.321634426602,0.247129092226116,0.0134632629326838,0.351089493747037,5.94393335518772,3.42699543462414E-07,0.0934126407718053,1.74215741648274,22.655005688376,0.00208782833480786,
17,0.16,6.44370111201739E-07,2.67398150040029E-05,0.000706969801636167,-1.13573800735441E-08,-0.0173273032044024,-0.423404783356389,-6.78670145863673,0.241548307425509,5.36899891231939,63.1587181807085,370.907704080146,-0.197955987326022,5.24255385972967,60.7886321758052,339.750240271148,0.262893751033882,0.0173266950631875,0.423380244231968,6.7860673449768,4.56500552235374E-07,0.11213587860314,2.0085198191174,25.2694717209428,0.0022172245703228,
18,0.17,9.67098451110065E-07,3.84679034028491E-05,0.000990730089556738,-1.80387437505896E-08,-0.0219597116635068,-0.505020320516386,-7.68839583840597,0.257464799450737,6.01885219114599,66.861910638755,370.628940838274,-0.200951306745754,5.86691921500758,64.1262489522367,335.920227993292,0.278530370387622,0.0219588101018569,0.50498564742725,7.68752791569571,6.00980304684044E-07,0.133663457318075,2.30351445713201,28.0509325393879,0.002344763006973,
19,0.18,1.42832069909267E-06,5.46699499812718E-05,0.00137483644567104,-2.80603043174339E-08,-0.0274571140811969,-0.596574194889853,-8.65120535926727,0.273784242416951,6.70570499722596,70.5614859847304,370.296595804284,-0.20224305446866,6.52443843323438,67.4216316983761,331.827850906728,0.294004161476305,0.0274558011591072,0.596525910852869,8.65003256310818,7.83051645736046E-07,0.158289823431715,2.62878577380841,30.9978532587237,0.00247007734475996,
20,0.19,2.08007959111708E-06,7.68818600991781E-05,0.00189205332712423,-4.28269684233821E-08,-0.0339220522000047,-0.698710160830112,-9.67721172786437,0.290579982652408,7.42951805531082,74.2568089570046,369.904131006388,-0.20170453802475,7.21467599846938,70.6721061047627,327.469582125716,0.309276293234631,0.0339201704088532,0.698643789159633,9.67564482031988,1.01104845348604E-06,0.18632575449901,2.98595602564783,34.1082571511382,0.00259276079018692,
21,0.2,2.99212691849492E-06,0.000107132890798245,0.00258538174442207,-6.42332843495528E-08,-0.0414636338021628,-0.812098932040165,-10.768892764671,0.307933532097094,8.19024538748221,77.9471731293462,369.444620969104,-0.199205802015456,7.93716950630818,73.874967250737,322.842184614969,0.324303900665684,0.0414609748779855,0.812008749231915,10.7668202162239,1.29503225363406E-06,0.218098111757776,3.37662007925558,37.3796732511993,0.0027123654526262,
22,0.21,4.25757860972765E-06,0.000148096762574454,0.00351109271558106,-9.48017756898274E-08,-0.0501978254484419,-0.937442925098831,-11.9291733729056,0.325934920711362,8.98783358244053,81.6317970427432,368.91075279639,-0.194613967802926,8.69142937714734,77.027483575586,317.942782553391,0.339040142993433,0.050194116446251,0.937321658096987,11.9264563374714,1.64717030510334E-06,0.253949538141167,3.80233968489243,40.8090838364256,0.00282840221321604,
23,0.22,6.00028800776862E-06,0.000203285957136802,0.00474256899046846,-1.37851996485878E-07,-0.0602477955056552,-1.07548158638565,-13.1614812763972,0.344683021263558,9.82222102620163,85.309820354214,368.29482725562,-0.187793673633568,9.47693861275949,80.1269015731632,312.768933517683,0.353434316043098,0.0602426815190102,1.07532004183454,13.1579474503707,2.08220122007548E-06,0.294238096459203,4.26463723383703,44.3928723326787,0.00294034114240282,
24,0.23,8.38442191358334E-06,0.000277300134853203,0.00637513639195712,-1.97705462859737E-07,-0.0717443135730393,-1.22699735925446,-14.469808111472,0.364285839307325,10.6933370944405,88.9803000169974,367.588761143038,-0.178607622507055,10.2931526034165,83.1704512101979,307.318700961594,0.367432023173868,0.0717373363453312,1.22678396947573,14.4652442192287,2.61800758686302E-06,0.339336842650174,4.76498901271574,48.1267722295782,0.00304761255034398,
25,0.24,1.1626844571167E-05,0.000376141930765195,0.00853209892953737,-2.79932254067277E-07,-0.0848262130219057,-1.39282235566825,-15.8587765562701,0.384860759114965,11.6011013068815,92.6422065099446,366.784091253076,-0.16691724440636,11.1394989927721,86.1553520628563,301.590726438338,0.380975408933197,0.084816784526319,1.39254262259143,15.8529191454534,3.27631919677398E-06,0.389633329165539,5.30481797425869,52.0058176228416,0.00314960876304022,
26,0.25,1.60130605971697E-05,0.00050761611910098,0.0113722296282203,-3.91645782799254E-07,-0.0996409240462846,-1.57384580499439,-17.3337142887321,0.406534733726539,12.5454224443331,96.2944201378141,365.871980317284,-0.152583478510731,12.0153776076327,89.0788201602146,295.584300987793,0.394003459352973,0.0996282939029579,1.57348161896372,17.3262384468447,4.08357548594764E-06,0.445529033778943,5.88548605047012,56.0242960265991,0.0032456867263223,
27,0.26,2.19176432709009E-05,0.00068183133550417,0.0150990125772522,-5.41853022493048E-07,-0.116345085396424,-1.77102236235611,-18.9007356814117,0.429444403961824,13.5261976292001,99.9357274284851,364.843225322672,-0.135467679688041,12.9201604595987,91.9380755171893,289.299435086933,0.406452372462282,0.116328300739199,1.77055116746986,18.8912411980478,5.07198186187629E-06,0.507438709403036,6.50828604087282,60.1757041175444,0.00333517154984378,
28,0.27,2.9830284633286E-05,0.000911827286661241,0.0199719819999844,-7.41868363251809E-07,-0.135105243844438,-1.98538136991427,-20.5668322662363,0.45373612704443,14.5433113705941,103.564817657846,363.688268662751,-0.115432651887119,13.8531918253579,94.7303503331688,282.736926541778,0.418256002141238,0.135083099935166,1.98477514112009,20.5548266595191,6.28080188941475E-06,0.575789650857803,7.17443311519887,64.4527070823092,0.00341736111417977,
29,0.28,4.03888543226283E-05,0.00121435474431495,0.0263205623363233,-1.00580026530073E-06,-0.156098651425168,-2.21803717675843,-22.3399731333587,0.479565890178731,15.5966345754918,107.180279538257,362.397212616228,-0.092343808999356,14.8137884121357,97.45289782613,275.898425682146,0.429346377885424,0.156069630927981,2.21726116608171,22.3248508308952,7.75793609663918E-06,0.651020874960963,7.88505597652311,68.8471022374801,0.00349153187632659,
30,0.29,5.44211517574855E-05,0.00161084071574028,0.0345608808076713,-1.35112101102739E-06,-0.179514171618763,-2.47020063671803,-24.2292165619027,0.507099077717832,16.6860235277798,110.780598111977,360.959837686288,-0.0660704613308951,15.8012396144797,100.103001665446,268.786497206551,0.439654302388613,0.179476369974438,2.46921183644138,24.2102333711332,9.56184867995384E-06,0.733582210802956,8.64118773722139,73.3497875757807,0.00355694602268018,
31,0.3,7.29973890168349E-05,0.00212857712480113,0.0452161023696412,-1.79933114706929E-06,-0.20555330690758,-2.74319191829608,-26.2448343111967,0.536510052107652,17.811318837464,114.364151896739,359.365625365904,-0.0364872230325375,16.8148078681485,102.6779859599,261.404678013344,0.44911002808899,0.205504340670227,2.74193717727457,26.2210761257373,1.17639159440323E-05,0.823933297622897,9.44375656610156,77.9507358594781,0.00361286013454373,
32,0.31,9.74958587152194E-05,0.00280217826740162,0.0589409283342414,-2.37673168335537E-06,-0.234431361560559,-3.03845477690278,-28.3984501204498,0.567981498140192,18.9723443628269,117.929210336612,357.603785919099,-0.00347553270203704,17.8537291064114,105.175225750666,253.757530344958,0.457644012967309,0.234368255852575,3.03686849205722,28.368794581123,1.44512852190644E-05,0.922542488312474,10.2935761703926,82.6389748301759,0.00365853555007778,
33,0.32,0.000129684733004764,0.00367536038827025,0.0765510065884676,-3.11531880272101E-06,-0.266378755082623,-3.3575724562933,-30.7031940598333,0.601703466632121,20.1689061088737,121.473931617373,355.663291782126,0.0330747240319162,18.9172133235243,107.592157952113,245.850689563308,0.465187754949329,0.266297805461467,3.35557374414792,30.6662636134478,1.773035061943E-05,1.02988565723448,11.1913361807466,87.402574029797,0.00369325062937803,
34,0.33,0.000171823519033266,0.00480310615697491,0.0990581259399932,-4.05381775794188E-06,-0.301642503519725,-3.70228540302386,-33.1738744273534,0.637872036753965,21.4007911060325,124.996360911547,353.532917188841,0.073263504724995,20.0044452495463,109.926292676355,237.690905864009,0.471674703266999,0.301539106498283,3.69977463531856,33.1279788933575,2.1730972699265E-05,1.14644491174174,12.1375925107357,92.2286386276014,0.00371631515735233,
35,0.34,0.000226788377324175,0.00625428782601561,0.12771221271488,-5.23887480957576E-06,-0.340487887729621,-4.07451099392583,-35.8271688656243,0.676687494980335,22.6677662737537,128.494429124001,351.201284607628,0.117178831536606,21.1145851399799,112.175224870207,229.286079221426,0.477041244101056,0.34035633291049,4.07136555608641,35.7702352192496,2.66115931907361E-05,1.27270720750738,13.1327577642123,97.1033105193145,0.00372708715395943,
36,0.35,0.000298226309624543,0.00811483569258845,0.164051317616928,-6.72642849009421E-06,-0.383200329800445,-4.47636549065836,-38.6818362399007,0.718351901902233,23.9695772743877,131.965952214155,348.656918538886,0.164894965725022,22.2467696829721,114.336646185728,220.645286830661,0.481227756790474,0.383033545024962,4.4724345913633,38.6113228372852,3.25654238894753E-05,1.40916286851308,14.1770917640054,102.011776803804,0.003724992405303,
37,0.36,0.000390744161559818,0.0104915534510856,0.209960978429234,-8.58328414063682E-06,-0.430087500992763,-4.91018844523444,-41.7589505149391,0.763065884564123,25.3059473635043,135.408631175247,345.888307157198,0.216470560107457,23.400113025982,116.408356997394,211.778802268861,0.484179735892841,0.42987674001001,4.90528676842597,41.6717424060699,3.98279205822551E-05,1.55630401326802,15.2706922733992,106.93828554739,0.00370954708468059,
38,0.37,0.000510139485783784,0.0135166994365464,0.267744572550129,-1.0888918481485E-05,-0.48148168683907,-5.37856978291857,-45.0821573098974,0.81102444986967,26.6765762436376,138.820052754322,342.8839721847,0.27194681657495,24.5737079229097,118.388278469917,202.698105525838,0.485848973451593,0.481216146698977,5.37246972915046,44.9744385924303,4.86857886840163E-05,1.71462288952514,16.4134859773001,111.866168513625,0.00368038390313057,
39,0.38,0.000663681599361606,0.0173534729563051,0.340206534938468,-1.37375437923393E-05,-0.537742437263326,-5.88437977955091,-48.6779528790606,0.862411561890557,28.0811389292872,142.197690998169,339.632547244184,0.331345676612646,25.7666270016697,120.274464570236,193.415882937811,0.486194795014864,0.537408789848933,5.87680199014399,48.5450512222782,5.94878065551174E-05,1.88461012039534,17.6052197825641,116.777870266031,0.0036372823179232,
40,0.39,0.000860452674355069,0.022202568213878,0.430750612308378,-1.72404638151907E-05,-0.599259531633021,-6.43080212265581,-52.5759837946222,0.917393160169824,29.5192846318549,145.538909709876,336.122864751957,0.394668071617325,26.9779241510665,122.065113904435,183.946015876646,0.485185342289718,0.598841350372573,6.42140391616728,52.4121812897664,7.26577942604862E-05,2.06675286530424,18.8454524862739,121.654982743367,0.00358020343874579,
41,0.4,0.00111176045549866,0.0283099850152653,0.543495650452868,-2.15287552813344E-05,-0.666456290300244,-7.02137019035264,-56.8093633615759,0.976108214491531,30.9906356740314,148.84096589711,332.344051158446,0.46189225571117,28.2066360245601,123.758581244188,174.303556770745,0.482798894819255,0.665933349026136,7.0097314646313,56.6076667157868,8.87100976814267E-05,2.26153289965587,20.1335468465073,126.478284064856,0.00350933040884796,
42,0.41,0.0014316362380755,0.0359763156485098,0.683411759509428,-2.67563092436191E-05,-0.739793265088003,-7.66000658594092,-61.414997446677,1.03865731091875,32.494786443923,152.101014285942,328.285630011324,0.532972235505085,29.4517836570562,125.353388586165,164.5046906221,0.479025222718261,0.73914068110505,7.64561264873298,61.166859220615,0.000108267996595213,2.46942461732554,21.4686620721268,131.227779954055,0.003425115205107,
43,0.42,0.0018374340974101,0.0455677609156387,0.856480052989225,-3.31032639697876E-05,-0.819772340838239,-8.3510658105554,-66.433907499113,1.10508814084475,34.0313023998876,155.316112961604,323.937631877698,0.60783629726863,30.7123741891544,126.848235559384,154.566679581817,0.473866962204706,0.818959528378781,8.33328649550013,66.1288885906246,0.000132085474158653,2.69089296016413,22.8497467263445,135.882745789129,0.00332833299744031,
44,0.43,0.00235055007019317,0.0575291646798595,1.06987947562571,-4.07798541860246E-05,-0.906941277843317,-9.09937971559547,-71.9115314533739,1.17537711624692,35.5997191375781,158.483230178621,319.290709586194,0.686385610102185,31.9874026912557,128.242008956648,144.50778727932,0.467341005216628,0.905930671055521,9.07744401706163,71.5368933671049,0.000161072793697389,2.92639127851972,24.2755320135797,140.421766919206,0.0032201454301219,
45,0.44,0.00299728306903958,0.0723993940959771,1.33220446246158,-5.00306871840789E-05,-1.00189871971149,-9.91030501481524,-77.8979730774588,1.24940615812091,37.199541530983,161.599252354987,314.336256492251,0.76849285125332,33.2758540774381,129.533791112752,134.347178369812,0.459479893419035,1.00064421597289,9.8832703336483,77.438186740436,0.000196326300217851,3.17635912634018,25.7445253912799,144.822774572048,0.0031021744222885,
46,0.45,0.00380986276757869,0.090829429277722,1.6537172079838,-6.11394306126653E-05,-1.1052996815242,-10.7897716036091,-84.4481560001861,1.32693350130364,38.8302429592137,164.660993225837,309.066524470475,0.854000753190558,34.5767050958896,130.722866778259,124.104787041209,0.450333204702246,1.10374474601682,10.7564865371375,83.8843120856525,0.000239162772954412,3.44121999369328,27.2550044195789,149.063074483,0.00297658830359236,
47,0.46,0.00482767349066727,0.113603556885039,2.04663801120087,-7.44338536723066E-05,-1.21786151700464,-11.7443296628375,-91.6218185659002,1.40755713215677,40.4912646302889,167.665204077545,303.474737015727,0.942720407147355,35.8889263786946,131.808728035897,113.801145839519,0.43996891572197,1.2159368779707,11.7033890995156,90.9309226554716,0.000291158462348862,3.72137897853226,28.805010734861,153.119365401372,0.0028462022485735,
48,0.47,0.00609870718903323,0.141664079274113,2.52547625350334,-9.02910943115944E-05,-1.34037033802503,-12.7811924259491,-99.4832577801335,1.49066923864157,42.182015012018,170.608584908433,297.55519108288,1.0344290695375,37.2114845285795,132.791076666941,103.457162922963,0.428474715321945,1.33799118883184,12.7308835249745,98.6373925423201,0.000354192591518796,4.01722039828826,30.392344013398,156.967745035408,0.0027145949517171,
49,0.48,0.00768128267706461,0.176139942084917,3.10740268424943,-0.000109142917752889,-1.47368782127849,-13.9082699412938,-108.100692304195,1.57539983204949,43.901869378068,173.487796260852,291.3033389762,1.12886710051254,38.5433442133982,133.669823184979,93.0938314901133,0.415959227999484,1.4707504303499,13.8465074041675,107.066028711511,0.000430494501947162,4.32910534049055,32.0145557860616,160.583702020034,0.00258624312744343,
50,0.49,0.00964607211811119,0.218379629216016,3.8126602707866,-0.000131480569547421,-1.618758280106,-15.1341870111487,-117.545062484297,1.66054754634365,45.650169474097,176.299471332844,284.715838541727,1.22573351324181,39.8834702300985,134.445081498618,82.7318493636959,0.402553079668141,1.61513589310083,15.0584359094753,116.280703750195,0.000522692650412592,4.65736915030574,33.6689429869112,163.942094489844,0.00246667445172587,
51,0.5,0.0120784786661669,0.269988545885691,4.66500508975186,-0.000157858587045911,-1.77661579732608,-16.4682755403102,-127.888015961984,1.74449562256078,47.4262233040541,179.040227795519,277.790555918945,1.32467942637523,41.230829487909,135.117157825063,72.3911192653802,0.388409693595471,1.77215369815142,16.375459891819,126.344662616723,0.000633862141004183,5.00231885200471,35.352541185779,167.01711933932,0.00236263754954736,
52,0.51,0.0150814102710269,0.332870864741191,5.69215941514522,-0.00018889658808083,-1.94839109834743,-17.9205275470388,-139.19873647762,1.82511138826022,49.2293050298618,181.706678502204,270.526499958469,1.42529849591762,42.5843928445919,135.686532033788,62.0900909710485,0.373705633679466,1.94290067768101,17.8069228927715,137.317170722659,0.000767565155858097,5.36423050149349,37.0621175954456,169.782282010809,0.00228228390435565,
53,0.52,0.0187784924588455,0.409275384576718,6.92624465939522,-0.000225277570500241,-2.13531768126486,-19.501489819829,-151.539157608602,1.89962837952768,51.0586549680686,184.295439963548,262.923660931085,1.52711317672142,43.9431367086962,136.153829036321,51.8448952806439,0.358640203167739,2.12856934500714,19.3625983462339,149.248562587191,0.000927875201487099,5.74334646910326,38.7941641976652,172.210385731669,0.00223535012316895,
54,0.53,0.0233177552045124,0.501844259397799,8.40413996790992,-0.000267740594341779,-2.33873649789668,-21.2220744003346,-164.95696125966,1.96451198581376,52.9134796538962,186.803137066335,254.982718290045,1.62955547672095,45.3060442935605,136.519777145761,41.6682070244542,0.343433844329482,2.33045123635075,21.0524818142859,162.173120143419,0.00111937109521084,6.13987265722171,40.5448917556021,174.273572961923,0.0022333184081219,
55,0.54,0.0288758125984,0.613662381198964,10.1676803262225,-0.0003170648498507,-2.56009818061145,-23.0932505871617,-179.475597239409,2.01531265799794,54.792951925526,189.226402025211,246.704573264737,1.73194081733434,46.6721063740995,136.785149520287,31.5677615199164,0.328324651438443,2.54993761690425,22.8864651965674,176.099063540732,0.00134707958726819,6.55397566812418,42.3102261495572,175.943472246558,0.00228951644351046,
56,0.55,0.0356625243451445,0.748303596440499,12.2635629238318,-0.000374041034911823,-2.80096141771665,-25.1255740934015,-195.080391159494,2.04651605355506,56.69621095856,191.561864982888,238.089652858409,1.83343388091547,48.0403213542184,136.950683933598,21.5444389906855,0.313561991228765,2.78851616819149,24.8738506578497,190.994792618776,0.00161633595593989,6.98577995645803,44.085809485909,177.191532820093,0.00241909285486694,
57,0.56,0.0439260790983697,0.909867635962798,14.7427694054149,-0.00043942473235107,-3.06298558198658,-27.3284979941942,-211.699670230905,2.05140797150139,58.6223621516618,193.806133052338,229.136924469534,1.93300621277472,49.4096944010027,137.016975314836,11.5898302281647,0.299395820155951,3.04776180249541,27.0226522672514,206.770412723989,0.00193251950668934,7.43536503224587,45.8670098997568,177.989669215556,0.00263876852112255,
58,0.57,0.0539583634411583,1.10299848155181,17.6592334086098,-0.000513865272369901,-3.34791511033764,-29.7093998031286,-229.179803281983,2.02198467595495,60.5704767293396,195.955754016446,219.842558936033,2.02938731699967,50.7792353435068,136.984335034825,1.68321433340906,0.286059828579299,3.32931918525214,29.3386247547611,223.253587753543,0.00230060587246674,7.90276282914334,47.6489460103195,178.311389753295,0.00296621588309968,
59,0.58,0.0661003678878234,1.33287079713986,21.0673908773592,-0.000597802788735718,-3.65755243950238,-32.2722527264916,-247.253251878209,1.94895722043132,62.5395908879613,198.007160552661,210.198191555345,2.1210146855828,52.1479549745051,136.852611251912,-8.21206785059694,0.273746131966752,3.63487391446542,31.8239547164315,240.159013617831,0.00272446178992082,8.38795542506901,49.426534654704,178.133644039678,0.00341885977618676,
60,0.59,0.0807472236061201,1.60512614559808,25.0181580679188,-0.000691326576158076,-3.99371558972463,-35.01587274529,-265.499373319187,1.82192189353851,64.5287042701882,199.956591063172,200.18876731445,2.20599437069651,53.5148593444772,136.620966523545,-18.1527485148502,0.262569102374132,3.96610867910616,34.4755558427809,257.051498741369,0.00320579441166172,8.89087340424662,51.1945737354892,177.439686710434,0.0040118334460802,
61,0.6,0.0983522548415234,1.92573555313038,29.5528193331781,-0.000793990652041849,-4.35817589862579,-37.9316960702949,-283.299110399044,1.62979609062106,66.5367775191609,201.799984494627,189.790035447821,2.28209289236179,54.8789416191747,136.287613444458,-28.2199748780013,0.252516531064706,4.32464024165823,37.2829353806458,273.304064141641,0.00374266405910617,9.4113952849757,52.9478753764383,176.223296249631,0.00475478575968846,
62,0.61,0.119429175553264,2.30076089204471,34.6943317058919,-0.000904589352128523,-4.75257119711444,-41.0010970976422,-299.787237727957,1.36164376526462,68.5627286514615,203.532849681793,178.965901640258,2.34679310722701,56.2391711188724,135.849517714367,-38.5232240519131,0.243388349470044,4.71193301769221,40.2256566917167,288.054991135035,0.00432749063611194,9.94934860339016,54.6814671353596,174.494666769259,0.00564726691452652,
63,0.62,0.144551276431427,2.73598699183041,40.4357611357851,-0.00102090884178179,-5.17829029534675,-44.1923614924824,-313.809892104106,1.00802396559406,70.6054280201161,205.150115668278,167.666075573112,2.39745858936354,57.5944793172959,135.302092246748,-49.2026703970083,0.234727568103113,5.1291857512043,43.2705272412819,300.171676725964,0.00494455158349102,10.5045134237897,56.3908789550254,172.288136233835,0.00667259772719971,
64,0.63,0.174346193694872,3.23640322180632,46.726087831837,-0.00113949100215629,-5.63632657506123,-47.457596797742,-323.900822551985,0.562966639896345,72.6636917477582,206.645978968134,155.824774947648,2.43165650954028,58.9437429119679,134.638926523178,-60.4282671663351,0.225755825440995,5.57718984267259,46.3688047446794,308.23455630458,0.00556711210614804,11.076629200978,58.0725279271142,169.671525451397,0.00779055629305507,
65,0.64,0.209484722171068,3.805532502112,53.4545955270833,-0.00125547324896362,-6.1271024233494,-50.7300957558734,-328.296549422286,0.0265787713604464,74.7362737330153,208.013776956022,143.361631418601,2.44767584457157,60.2857646455432,133.851621154672,-72.3931773979208,0.215337011264064,6.05616187798003,49.4539353703667,310.560534119274,0.00615457450756096,11.6654059753265,59.7241979573349,166.756126380526,0.00892999165377458,
66,0.65,0.250662280411537,4.4446419172158,60.4365562176137,-0.00136259530738084,-6.65027273243095,-53.9229364942577,-325.016376340406,-0.591923656149598,76.8218567012463,209.245931902606,130.186274204091,2.44522960371405,61.6192533891298,132.929823255399,-85.2988499476092,0.202004532359828,6.5655592842595,52.4405853248309,305.290241846975,0.00665038924142584,12.2705407239721,61.3455834075302,163.705237811231,0.00998359315488111,
67,0.66,0.298572234527113,5.15192322248481,67.4047684949698,-0.00145347792935477,-7.20452473808257,-56.9298278927252,-312.033800146067,-1.27128842030371,78.9190432850124,210.33402302439,116.208107750439,2.42623392389995,62.9428060415501,131.861572482144,-99.3295010517309,0.184094483895499,7.103896706745,55.2259194142344,290.562972371594,0.00698188197366917,12.8917391836654,62.9388240088724,160.737726093627,0.0108082455925045,
68,0.67,0.353871488814732,5.92179558472671,74.0130946069862,-0.00152025802731378,-7.78740195778972,-59.6292439579646,-287.555193636722,-1.9763269337401,81.0263487171104,211.269046078666,101.352199844909,2.39542233489032,64.254894856605,130.634053192757,-114.615684900619,0.160017246349657,7.66859045556431,57.6940782892694,264.791555336881,0.00706345550628722,13.5287424889755,64.5089092450525,158.121873428024,0.0112350071774242,
69,0.68,0.417140559142038,6.74453541153632,79.8583081597288,-0.00155558980840477,-8.3951891342436,-61.8925576842427,-250.393844399532,-2.65825880936079,83.1421972410928,212.041901116947,85.5806149101206,2.36043390173181,65.5538645030045,129.234786922014,-131.190473970279,0.128662111363604,8.25586643162248,59.7244428433027,227.021600722654,0.00680452636685863,14.1813565392566,66.0637917603252,156.154723561077,0.0110916981309766,
70,0.69,0.488842481555763,7.60644518869,84.5238619191408,-0.00155389100551527,-9.02289847085539,-63.5960563825647,-200.38221836608,-3.2584454405116,85.2649245373896,212.644101588233,68.915934567828,2.33101359602198,66.8379429689081,127.653184172649,-148.947130604591,0.0898616585273703,8.86076906014622,61.2034438950309,177.316010185062,0.00612269596307794,14.849480359776,67.6140496398017,155.124474884597,0.010237441283647,
71,0.7,0.569286742390804,8.49070136791954,87.6427789553884,-0.00151256412534726,-9.66439024648753,-64.6354685593741,-138.714799224744,-3.71594671457078,87.3927880489108,213.068625930247,51.4607872044311,2.3171907711517,68.1052688775461,125.882225384439,-167.612120721781,0.0447667675560153,9.47730050979608,62.0384699042621,117.059072388009,0.00496085790463821,15.533128395516,69.1720049164792,155.258938858298,0.00860249232962074,
72,0.71,0.658605084167078,9.3788622215836,88.9679025390496,-0.0014328309994538,-10.3126405281154,-64.9403392340756,-68.0851356509927,-3.97796511154791,89.5239859157598,213.310757931046,33.4055173429399,2.32676173908291,69.3539347918023,123.919913022439,-186.74851294935,-0.00405178853460619,10.098698793808,62.1712320394589,49.0512243423427,0.00330457183082093,16.2324414018607,70.7503465243051,156.670694608253,0.00622075886630341,
73,0.72,0.756744826834227,10.2528101062596,88.4301006890094,-0.00131986416656207,-10.9601377842309,-64.4848838867851,7.49424573691218,-4.01067003540097,91.6566834415453,213.3687207791,15.0175248074751,2.36289752556962,70.582042236918,121.770104371019,-205.798997368833,-0.0529023930479628,10.7178332941411,61.5873673047792,-22.7047699016892,0.00119419869605506,16.947681962781,72.3604831434473,159.315874960644,0.00324071438938229,
74,0.73,0.863482173624468,11.0967339089723,86.1640145536156,-0.00118210021533746,-11.5993576177759,-63.2923852593434,83.2090966060075,-3.80700345578142,93.7890441244617,213.243934248614,-3.38894642926279,2.42288047706774,71.7877607098836,119.442448046774,-224.164840662477,-0.0976464484378091,11.3276657324319,60.3195976632486,-93.5336582944428,-0.00127354463057967,17.6792136718382,74.0109873323112,162.983742927052,-9.38323298773315E-05,
75,0.74,0.97845368763013,11.8987150079054,82.4895980461442,-0.00102989971324917,-12.2232428254074,-61.4318300344524,154.189708355145,-3.38863837330759,95.919261004295,212.940818720236,-21.4963587142269,2.49860415436864,72.9693812992266,116.95138673229,-241.302084078181,-0.134543742072983,11.9217053323406,58.4434186595335,-158.818341137061,-0.00395703725722054,18.4274668231656,75.7065078532902,167.325675407435,-0.00348974349414315,
76,0.75,1.10120021984679,12.6515964411376,77.8533016402097,-0.000873936015166407,-12.8256139669677,-59.0077010086865,216.278477176022,-2.80128622184242,98.0455839516724,212.466198456439,-39.0287462881553,2.57868687355441,74.1253565404891,114.314458560374,-256.807455246016,-0.160975826696094,12.4943873451714,56.0664314029859,-214.726484586737,-0.00669191202451676,19.1928966863296,77.447397181708,171.917576283574,-0.00666226632945115,
77,0.76,1.23121543745683,13.3530387755086,72.7474063883855,-0.000723744593765859,-13.4014546269119,-56.1456674935038,266.60003044226,-2.10503398138622,100.166339622797,211.828462958488,-55.7851807146233,2.65132865201711,75.2543214736771,111.550310086859,-270.469656109942,-0.175814436330154,13.0413243890013,53.3141124681532,-258.726557322826,-0.00931750629082094,19.9759418405179,79.2300807648659,176.336684225579,-0.00938506717615666,
78,0.77,1.3679913138609,14.0048933737597,67.6319161745091,-0.000586742946687181,-13.9470475202982,-52.9776110308984,303.800199553368,-1.36299671962135,102.279942657229,211.036686005613,-71.6540281103567,2.70682786537409,76.3550952401273,108.676854927012,-282.27548005283,-0.179371711310638,13.5594117744729,50.3153629498187,-289.775480769231,-0.0116999730995004,20.7769892149698,81.0479862589014,180.229547072223,-0.0115184986225416,
79,0.78,1.51105504323331,14.6121636818594,62.8784630592122,-0.000467826574982884,-14.4599701770508,-49.6288935328733,327.949943355911,-0.631576198715377,104.384898590253,210.099871561698,-86.6077285243973,2.73902303478524,77.4266663792397,105.709890787336,-292.376737417362,-0.173038194465285,14.0467991005126,47.1905579025279,-308.186599967808,-0.0137465399832968,21.5963500077898,82.8927393119749,183.354199803933,-0.0130127270137489,
80,0.79,1.65999475149194,15.1818474761461,58.7442736520597,-0.000369464645373083,-14.9389819993134,-46.2095094860275,340.215173757201,0.0456679930124793,106.479800295382,209.026422456637,-100.683931483371,2.74552063048964,78.4681672012342,102.662302555228,-301.034861743083,-0.158795164139446,14.5027614832492,44.0435395318432,-315.284009554295,-0.0154093082590743,22.434247666202,84.7553391150478,185.591512034489,-0.0138917893064573,
81,0.8,1.81447402386305,15.7218865656747,55.3731667245764,-0.000292120550518216,-15.3838440307792,-42.8094260892828,342.432959432752,0.640178872499511,108.56332033314,207.823850164235,-113.961130752065,2.72703587723295,79.4788430201175,99.5438140535178,-308.561879778938,-0.138767724768324,14.9275115408684,40.9577061339372,-312.98146803103,-0.0166804836385542,23.2908166420461,86.6271151899587,186.93138098759,-0.0142287137632685,
82,0.81,1.97423703381721,16.2403490405721,52.8142790165397,-0.000234810431493412,-15.7951106465828,-39.4974663287604,336.713412391613,1.13744611745002,110.634201465529,206.498688927697,-126.535720240089,2.68633807765076,80.4580211039518,96.361152882146,-315.271299502416,-0.114910341474155,15.3219899515524,37.9954694540628,-303.398800947733,-0.0175826738921599,24.1661092138642,88.5003788556603,187.444719675192,-0.0141206974979785,
83,0.82,2.13910683030773,16.7448776186773,51.0483039055389,-0.000195655117848335,-16.1739233782806,-36.322663464976,325.135789019851,1.53425619469861,112.691247080255,205.056552677729,-138.504451012386,2.62720887981297,81.405082653855,93.1184649564597,-321.444986453656,-0.0888414055593567,15.6876629118029,35.1999892289258,-288.577333068673,-0.0181578407345344,25.0601072867708,90.3687741736404,187.251933596837,-0.0136696300690971,
84,0.83,2.3089793455158,17.2423773668654,50.0134901571927,-0.000172341078045306,-16.5218260609439,-33.317006394495,309.5576692339,1.83535319174075,114.733312634614,203.502272559391,-149.953392123754,2.55363861267286,82.3194395630844,89.8178356461062,-327.31593464698,-0.0617972578689107,16.0263438235369,32.5981258387921,-270.307911574374,-0.018457407282922,25.9727364266973,92.2273860832206,186.495188430011,-0.0129695731582771,
85,0.84,2.48381525499249,17.738888241727,49.6270927408062,-0.000162458810347199,-16.8406106729248,-30.4987152434209,291.52350132252,2.05032205085721,116.759298663798,201.840065500073,-160.952612472149,2.46932041144493,83.2005164755663,86.459815641876,-333.063440409781,-0.0346611070951541,16.3400470471541,30.2037907200097,-250.054872806208,-0.0185347284259645,26.9038800751777,94.0726810150383,185.317828025464,-0.0121004340734253,
86,0.85,2.66363123985536,18.239583492964,49.8008489185205,-0.000163722359383341,-17.1321960614199,-27.8754727241407,272.245005976353,2.19109448333248,118.768145484853,200.073700705816,-171.555002843638,2.37740244041775,84.0477378606659,83.0438919052387,-338.816258954473,-0.00802716622507726,16.630874806495,28.0211629712333,-228.947500721167,-0.0184401292164191,27.8533926299414,95.9023498647548,183.851323307808,-0.0111260980266157,
87,0.86,2.84849164614194,18.7488432626961,50.4508392468734,-0.000174091424973235,-17.3985373304424,-25.4472923505328,252.625285718568,2.2701749251663,120.758829472785,198.206645674645,-181.797618847129,2.28042143336382,84.8605194004317,79.5688773325828,-344.659875769878,0.0177271975718296,16.9009343175108,26.0474899358429,-207.8111180319,-0.0182181466781373,28.8211107002184,97.7151073325689,182.208505564729,-0.0100952481286952,
88,0.87,3.03850109249576,19.2703654771688,51.5028941608178,-0.000191822635852179,-17.6415614771536,-23.2088918372417,233.304244829945,2.2995123616887,122.730360658653,196.242184091986,-191.704256188391,2.18034249940106,85.6382628406929,76.0332146787222,-350.645136043664,0.0423762442866633,17.1522803428084,24.2753674558863,-187.216267333374,-0.0179064002072796,29.8068622962034,99.5104839491641,180.481298853177,-0.00904349302473684,
89,0.88,3.23379826213147,19.8072885705185,52.8948607149853,-0.000215474441193924,-17.8631241877593,-21.1515577172782,214.710234628897,2.28987500409879,124.681781360128,194.183504757682,-201.28838955741,2.07864827428114,86.3803534804679,72.4352024041352,-356.796573386295,0.0657936102952744,17.3868779267758,22.6945041502617,-167.531853878878,-0.0175355261492492,30.8104739968436,101.288632062315,178.74127015543,-0.00799589735416387,
90,0.89,3.4345509130898,20.3623106248604,54.5768719079514,-0.000243884932721926,-18.064982917355,-19.2645501473234,197.109188249422,2.25057826558124,126.612165566891,192.03376433413,-210.555970914275,1.97644098906309,87.0861595812908,68.7731553046828,-363.119621118321,0.0879137842362668,17.6065804240312,21.2930296958687,-148.974345086866,-0.0171297220674617,31.831776294432,103.050156081638,177.041689423934,-0.00696940707928343,
91,0.9,3.64095202504363,20.9377967242027,56.5104802731872,-0.000276136314934244,-18.2487820215841,-17.5361228825089,180.647079881436,2.1894393619699,128.520618840081,189.796128224471,-219.507845380765,1.87453761538122,87.7550331140649,65.0455137620836,-369.606437356921,0.108705538251716,17.8131186595483,20.058427848883,-131.649489109907,-0.0167075783781725,32.8706073789414,104.795970163171,175.420205793376,-0.0059749363353385,
92,0.91,3.85321694441201,21.5358710511753,58.6672440964532,-0.000311514926985402,-18.4160464914137,-15.9542375540745,165.384414416982,2.11286340367753,130.406278530156,187.47379415133,-228.141707948475,1.77354947957843,88.3863113945084,61.250914242676,-376.240382798379,0.128154713405111,18.0080978812098,18.9781756481851,-115.585687098466,-0.0162829912738805,33.9268156342023,106.527182410062,173.901594704963,-0.00501904790466494,
93,0.92,4.07158137040246,22.1584931045724,61.0271350752868,-0.00034947207849377,-18.5681816042071,-14.5070443457259,151.323033289471,2.0259954630148,132.268314161642,185.070002621224,-236.453615293357,1.67394436099245,88.979319274367,57.3882315743217,-382.999333048272,0.1462538120931,18.1929999391778,18.0401611345985,-100.759573447561,-0.0158660385516197,35.0002610972706,108.245002636519,172.500283734783,-0.00410524623712554,
94,0.93,4.29630002700257,22.8075189653366,63.5769785654495,-0.000389588446054698,-18.7064764691214,-13.1831896294124,138.426248807444,1.93289675198688,134.105927871938,182.588037810602,-244.439109216317,1.57609245713167,89.5333716495214,53.4566012856753,-389.858051335076,0.162996269674798,18.3691887874651,17.2329392665655,-87.1149693661699,-0.0154637596173821,36.090816098342,109.950670010761,171.222530211358,-0.0032349393072991,
95,0.94,4.52764587933678,23.4847492557125,66.3090331549459,-0.000431543167772847,-18.8321099884691,-11.9719988426726,126.633541704527,1.83672017581417,135.918354823189,180.031221712063,-252.094021571781,1.48029895130295,90.0477761185115,49.4554282596396,-396.789839316339,0.178373780310843,18.5379179349845,16.5458729282357,-74.5765208578522,-0.015080818169096,37.1983652613236,111.645396895926,170.068221823395,-0.00240813522737266,
96,0.95,4.7659097706527,24.1919656563186,69.2197518792704,-0.000475087820768883,-18.9461581820768,-10.8635717070036,115.871014554003,1.73987207891714,137.704863531353,177.402903739518,-259.415028680199,1.38682616303618,90.5218356787645,45.3843862695446,-403.767652834109,0.19237550865949,18.7003388839572,15.9691946025528,-63.0592427529631,-0.0147200473205779,38.3228050100211,113.330325575565,169.032323548592,-0.00162393548142521,
97,0.96,5.01140037473372,24.9309577924935,72.3087304770625,-0.000520024956269749,-19.0496021440205,-9.84881750796345,106.058634968237,1.64415432429345,139.464756075749,174.706447450704,-266.400014583525,1.29590797823895,90.9548513865972,41.2434116482198,-410.764832412803,0.204988385415386,18.8575099008287,15.4940149627248,-52.4750046001195,-0.0143828877178415,39.4640426942673,115.006495058565,168.106017477705,-0.000880877117046319,
98,0.97,5.26444437577894,25.703542114808,75.577828905464,-0.000566190635403944,-19.1433361393097,-8.91945068525013,97.1151100665622,1.5508852070371,141.19736816674,171.945215611165,-273.048291832601,1.2077587785597,91.3461249343401,37.0326933471673,-417.755563218306,0.216197957992073,19.0104046890962,15.1122973188106,-42.7367878053976,-0.0140697335965322,40.6219954249193,116.674815682558,167.277588624761,-0.000177165558936744,
99,0.98,5.5253868028697,26.5115741621861,79.0304439420508,-0.000613440342270879,-19.2281755204304,-8.06796123274474,88.9610492271251,1.46100010152917,142.902069059615,169.122554486317,-279.360718180168,1.12257859103041,91.6949611166641,32.7526609170365,-424.715149447851,0.225989461841346,19.1599206936179,14.8168112983218,-33.7613529602911,-0.013780202507293,41.7965886862936,118.336049713612,166.533107541283,0.000489170087420547,
100,0.99,5.79459145880984,27.3569553556306,82.6709084806227,-0.000661637674473801,-19.3048642659764,-7.28757009886811,81.5209131965998,1.37513390748847,144.578261310325,166.241777991909,-285.339738607999,1.04055573710831,92.0006701707574,28.403971422489,-431.620164447964,0.234348910931552,19.3068868780525,14.6010750210624,-25.4707959581438,-0.0135133433573552,42.9877547787014,119.990796548619,165.856954318584,0.00112017555516171,
101,1,6.07244139347458,28.2416352492721,86.5039941750346,-0.000710645278609544,-19.3740820287869,-6.57217661046054,74.7241188139168,1.29368778935235,146.225380373965,163.306152141847,-290.989374818405,0.961867900080598,92.2625699832056,23.9874959426188,-438.448519800152,0.241264094323934,19.4520708938579,14.4592920358378,-17.7933436912895,-0.0132677955376461,44.1954311315474,121.639481461174,165.232221106375,0.00171790653705846,
